; G-Code generated by Simplify3D(R) Version 4.1.2
; Mar 29, 2021 at 6:49:35 PM
; Settings Summary
;   processName,PLA
;   applyToModels,Controller_Mount,Controller_Mount_mirror
;   profileName,Rostock MAX v3(2) (modified)
;   profileVersion,2019-01-13 09:20:56
;   baseProfile,
;   printMaterial,PLA
;   printQuality,Medium
;   printExtruders,
;   extruderName,Primary Extruder
;   extruderToolheadNumber,0
;   extruderDiameter,0.33
;   extruderAutoWidth,1
;   extruderWidth,0.4
;   extrusionMultiplier,1
;   extruderUseRetract,1
;   extruderRetractionDistance,12
;   extruderExtraRestartDistance,0
;   extruderRetractionZLift,1
;   extruderRetractionSpeed,7200
;   extruderUseCoasting,0
;   extruderCoastingDistance,1
;   extruderUseWipe,1
;   extruderWipeDistance,5
;   primaryExtruder,0
;   layerHeight,0.15
;   topSolidLayers,9
;   bottomSolidLayers,7
;   perimeterOutlines,4
;   printPerimetersInsideOut,1
;   startPointOption,1
;   startPointOriginX,0
;   startPointOriginY,0
;   sequentialIslands,0
;   spiralVaseMode,0
;   firstLayerHeightPercentage,90
;   firstLayerWidthPercentage,100
;   firstLayerUnderspeed,0.5
;   useRaft,0
;   raftExtruder,0
;   raftTopLayers,1
;   raftBaseLayers,1
;   raftOffset,0
;   raftSeparationDistance,0.14
;   raftTopInfill,100
;   aboveRaftSpeedMultiplier,0.3
;   useSkirt,1
;   skirtExtruder,0
;   skirtLayers,2
;   skirtOutlines,10
;   skirtOffset,0
;   usePrimePillar,0
;   primePillarExtruder,999
;   primePillarWidth,12
;   primePillarLocation,7
;   primePillarSpeedMultiplier,1
;   useOozeShield,0
;   oozeShieldExtruder,999
;   oozeShieldOffset,2
;   oozeShieldOutlines,1
;   oozeShieldSidewallShape,0
;   oozeShieldSidewallAngle,30
;   oozeShieldSpeedMultiplier,1
;   infillExtruder,0
;   internalInfillPattern,Triangular
;   externalInfillPattern,Rectilinear
;   infillPercentage,50
;   outlineOverlapPercentage,20
;   infillExtrusionWidthPercentage,200
;   minInfillLength,5
;   infillLayerInterval,1
;   internalInfillAngles,0,60,-60
;   overlapInternalInfillAngles,1
;   externalInfillAngles,45,-45
;   generateSupport,1
;   supportExtruder,0
;   supportInfillPercentage,20
;   supportExtraInflation,0
;   supportBaseLayers,2
;   denseSupportExtruder,0
;   denseSupportLayers,0
;   denseSupportInfillPercentage,70
;   supportLayerInterval,1
;   supportHorizontalPartOffset,0.3
;   supportUpperSeparationLayers,1
;   supportLowerSeparationLayers,1
;   supportType,0
;   supportGridSpacing,3
;   maxOverhangAngle,45
;   supportAngles,0
;   temperatureName,Primary Extruder,Heated Bed
;   temperatureNumber,0,1
;   temperatureSetpointCount,1,1
;   temperatureSetpointLayers,1,1
;   temperatureSetpointTemperatures,208,80
;   temperatureStabilizeAtStartup,1,1
;   temperatureHeatedBed,0,1
;   fanLayers,1
;   fanSpeeds,0
;   blipFanToFullPower,1
;   adjustSpeedForCooling,1
;   minSpeedLayerTime,15
;   minCoolingSpeedSlowdown,20
;   increaseFanForCooling,0
;   minFanLayerTime,60
;   maxCoolingFanSpeed,100
;   increaseFanForBridging,1
;   bridgingFanSpeed,100
;   use5D,1
;   relativeEdistances,0
;   allowEaxisZeroing,1
;   independentExtruderAxes,0
;   includeM10123,0
;   stickySupport,1
;   applyToolheadOffsets,0
;   gcodeXoffset,0
;   gcodeYoffset,0
;   gcodeZoffset,0.13
;   overrideMachineDefinition,1
;   machineTypeOverride,1
;   strokeXoverride,197
;   strokeYoverride,197
;   strokeZoverride,397
;   originOffsetXoverride,98.5
;   originOffsetYoverride,98.5
;   originOffsetZoverride,0
;   homeXdirOverride,0
;   homeYdirOverride,0
;   homeZdirOverride,1
;   flipXoverride,1
;   flipYoverride,-1
;   flipZoverride,1
;   toolheadOffsets,0,0|0,0|0,0|0,0|0,0|0,0
;   overrideFirmwareConfiguration,1
;   firmwareTypeOverride,RepRap (Marlin/Repetier/Sprinter)
;   GPXconfigOverride,r2
;   baudRateOverride,250000
;   overridePrinterModels,1
;   printerModelsOverride
;   startingGcode,G28 ; home all axes
;   layerChangeGcode,
;   retractionGcode,
;   toolChangeGcode,
;   endingGcode,M106 S0 ; turn off cooling fan,M104 S0 ; turn off extruder,M140 S0 ; turn off bed,G28 ; home axes,M84 ; disable motors
;   exportFileFormat,gcode
;   celebration,0
;   celebrationSong,Random Song
;   postProcessing,
;   defaultSpeed,6000
;   outlineUnderspeed,0.4
;   solidInfillUnderspeed,0.6
;   supportUnderspeed,0.8
;   rapidXYspeed,18000
;   rapidZspeed,4800
;   minBridgingArea,50
;   bridgingExtraInflation,0
;   bridgingExtrusionMultiplier,0.95
;   bridgingSpeedMultiplier,0.7
;   useFixedBridgingAngle,0
;   fixedBridgingAngle,0
;   applyBridgingToPerimeters,0
;   filamentDiameters,1.75|1.75|1.75|1.75|1.75|1.75
;   filamentPricesPerKg,35|46|46|46|46|46
;   filamentDensities,1.25|1.25|1.25|1.25|1.25|1.25
;   useMinPrintHeight,0
;   minPrintHeight,1.5
;   useMaxPrintHeight,0
;   maxPrintHeight,0
;   useDiaphragm,1
;   diaphragmLayerInterval,20
;   robustSlicing,1
;   mergeAllIntoSolid,0
;   onlyRetractWhenCrossingOutline,1
;   retractBetweenLayers,1
;   useRetractionMinTravel,0
;   retractionMinTravel,3
;   retractWhileWiping,0
;   onlyWipeOutlines,1
;   avoidCrossingOutline,0
;   maxMovementDetourFactor,3
;   toolChangeRetractionDistance,12
;   toolChangeExtraRestartDistance,-0.5
;   toolChangeRetractionSpeed,600
;   externalThinWallType,0
;   internalThinWallType,2
;   thinWallAllowedOverlapPercentage,10
;   singleExtrusionMinLength,1
;   singleExtrusionMinPrintingWidthPercentage,50
;   singleExtrusionMaxPrintingWidthPercentage,200
;   singleExtrusionEndpointExtension,0.2
;   horizontalSizeCompensation,0
G90
M82
M106 S0
M140 S80
M190 S80
M104 S208 T0
M109 S208 T0
G28 ; home all axes
; process PLA
; layer 1, Z = 0.265
T0
G92 E0.0000
G1 E-12.0000 F7200
; feature skirt
; tool H0.135 W0.396
G1 Z1.000 F4800
G1 X27.178 Y1.598 F18000
G1 Z0.265 F4800
G1 E0.0000 F7200
G92 E0.0000
G1 X27.178 Y20.551 E0.4213 F3000
G1 X27.173 Y20.654 E0.4235
G1 X27.123 Y21.182 E0.4353
G1 X27.085 Y21.384 E0.4399
G1 X26.918 Y21.959 E0.4532
G1 X26.826 Y22.181 E0.4586
G1 X26.468 Y22.830 E0.4750
G1 X26.332 Y23.024 E0.4803
G1 X26.327 Y23.031 E0.4805
G1 X25.973 Y23.432 E0.4924
G1 X25.950 Y23.458 E0.4931
G1 X25.888 Y23.519 E0.4951
G1 X25.844 Y23.561 E0.4964
G1 X25.216 Y24.170 E0.5159
G1 X25.216 Y24.037 E0.5188
G1 X25.136 Y24.088 E0.5209
G1 X25.076 Y24.128 E0.5225
G1 X24.979 Y24.179 E0.5249
G1 X24.925 Y24.208 E0.5263
G1 X22.657 Y25.408 E0.5833
G1 X22.657 Y24.675 E0.5996
G1 X20.451 Y24.678 E0.6487
G1 X20.347 Y24.673 E0.6510
G1 X19.818 Y24.623 E0.6628
G1 X19.616 Y24.585 E0.6674
G1 X19.058 Y24.422 E0.6803
G1 X18.867 Y24.347 E0.6848
G1 X18.348 Y24.083 E0.6978
G1 X18.175 Y23.973 E0.7023
G1 X17.715 Y23.616 E0.7153
G1 X17.565 Y23.475 E0.7199
G1 X17.192 Y23.052 E0.7324
G1 X17.089 Y22.914 E0.7362
G1 X16.860 Y22.554 E0.7457
G1 X16.822 Y22.481 E0.7475
G1 X16.782 Y22.407 E0.7494
G1 X16.551 Y21.872 E0.7624
G1 X16.481 Y21.643 E0.7677
G1 X16.345 Y20.932 E0.7838
G1 X16.326 Y20.728 E0.7883
G1 X16.326 Y20.717 E0.7886
G1 X16.323 Y14.678 E0.9228
G1 X-16.322 Y14.678 E1.6484
G1 X-16.322 Y20.579 E1.7795
G1 X-16.325 Y20.620 E1.7804
G1 X-16.331 Y20.710 E1.7824
G1 X-16.419 Y21.408 E1.7981
G1 X-16.488 Y21.672 E1.8041
G1 X-16.622 Y22.013 E1.8123
G1 X-16.417 Y22.218 E1.8187
G1 X-17.350 Y23.247 E1.8496
G1 X-17.419 Y23.322 E1.8519
G1 X-17.562 Y23.479 E1.8566
G1 X-17.648 Y23.544 E1.8590
G1 X-17.961 Y23.820 E1.8683
G1 X-18.128 Y23.941 E1.8728
G1 X-18.644 Y24.246 E1.8862
G1 X-18.856 Y24.341 E1.8913
G1 X-18.868 Y24.347 E1.8916
G1 X-19.567 Y24.573 E1.9080
G1 X-19.801 Y24.622 E1.9133
G1 X-20.346 Y24.673 E1.9254
G1 X-20.449 Y24.678 E1.9277
G1 X-23.053 Y24.678 E1.9856
G1 X-23.156 Y24.673 E1.9879
G1 X-23.682 Y24.623 E1.9997
G1 X-23.884 Y24.585 E2.0042
G1 X-24.459 Y24.418 E2.0175
G1 X-24.681 Y24.326 E2.0229
G1 X-25.330 Y23.969 E2.0393
G1 X-25.443 Y23.890 E2.0424
G1 X-25.513 Y23.843 E2.0443
G1 X-25.528 Y23.830 E2.0447
G1 X-25.537 Y23.823 E2.0450
G1 X-25.601 Y23.765 E2.0469
G1 X-25.963 Y23.446 E2.0576
G1 X-26.082 Y23.323 E2.0614
G1 X-26.340 Y23.011 E2.0704
G1 X-26.421 Y22.900 E2.0735
G1 X-26.638 Y22.557 E2.0825
G1 X-26.718 Y22.406 E2.0863
G1 X-26.779 Y22.264 E2.0897
G1 X-26.827 Y22.177 E2.0919
G1 X-26.919 Y21.955 E2.0973
G1 X-26.931 Y21.913 E2.0982
G1 X-26.949 Y21.872 E2.0992
G1 X-27.019 Y21.643 E2.1045
G1 X-27.038 Y21.545 E2.1068
G1 X-27.080 Y21.399 E2.1101
G1 X-27.115 Y21.232 E2.1139
G1 X-27.149 Y20.963 E2.1200
G1 X-27.155 Y20.932 E2.1207
G1 X-27.161 Y20.868 E2.1221
G1 X-27.165 Y20.832 E2.1229
G1 X-27.168 Y20.796 E2.1237
G1 X-27.174 Y20.729 E2.1252
G1 X-27.178 Y1.598 E2.5504
G1 X-25.902 Y0.322 E2.5905
G1 X25.902 Y0.322 E3.7419
G1 X27.178 Y1.598 E3.7820
G92 E0.0000
G1 E-12.0000 F7200
G1 Z1.265 F4800
G1 X-18.209 Y23.510 F18000
G1 Z0.265 F4800
G1 E0.0000 F7200
G92 E0.0000
G1 X-18.345 Y23.609 E0.0037 F3000
G1 X-18.827 Y23.894 E0.0162
G1 X-19.001 Y23.972 E0.0204
G1 X-19.010 Y23.976 E0.0206
G1 X-19.668 Y24.190 E0.0360
G1 X-19.860 Y24.229 E0.0404
G1 X-20.374 Y24.278 E0.0519
G1 X-20.458 Y24.282 E0.0537
G1 X-23.044 Y24.282 E0.1112
G1 X-23.128 Y24.278 E0.1131
G1 X-23.627 Y24.231 E0.1242
G1 X-23.791 Y24.199 E0.1279
G1 X-24.328 Y24.043 E0.1403
G1 X-24.509 Y23.968 E0.1447
G1 X-25.120 Y23.632 E0.1602
G1 X-25.219 Y23.563 E0.1629
G1 X-25.271 Y23.528 E0.1643
G1 X-25.282 Y23.518 E0.1646
G1 X-25.289 Y23.513 E0.1648
G1 X-25.337 Y23.470 E0.1662
G1 X-25.689 Y23.159 E0.1767
G1 X-25.787 Y23.059 E0.1798
G1 X-26.027 Y22.768 E0.1882
G1 X-26.093 Y22.677 E0.1907
G1 X-26.295 Y22.358 E0.1991
G1 X-26.361 Y22.234 E0.2022
G1 X-26.423 Y22.090 E0.2057
G1 X-26.470 Y22.005 E0.2078
G1 X-26.545 Y21.824 E0.2122
G1 X-26.558 Y21.779 E0.2132
G1 X-26.577 Y21.735 E0.2143
G1 X-26.634 Y21.548 E0.2186
G1 X-26.652 Y21.453 E0.2208
G1 X-26.695 Y21.304 E0.2242
G1 X-26.724 Y21.167 E0.2273
G1 X-26.757 Y20.901 E0.2333
G1 X-26.762 Y20.876 E0.2339
G1 X-26.767 Y20.824 E0.2350
G1 X-26.771 Y20.795 E0.2357
G1 X-26.773 Y20.765 E0.2363
G1 X-26.778 Y20.710 E0.2376
G1 X-26.782 Y1.762 E0.6587
G1 X-25.738 Y0.718 E0.6915
G1 X25.738 Y0.718 E1.8356
G1 X26.782 Y1.762 E1.8685
G1 X26.782 Y20.542 E2.2859
G1 X26.778 Y20.626 E2.2877
G1 X26.731 Y21.126 E2.2989
G1 X26.699 Y21.291 E2.3026
G1 X26.543 Y21.828 E2.3151
G1 X26.468 Y22.009 E2.3194
G1 X26.132 Y22.620 E2.3349
G1 X26.021 Y22.779 E2.3392
G1 X26.016 Y22.785 E2.3394
G1 X25.675 Y23.172 E2.3509
G1 X25.662 Y23.186 E2.3513
G1 X25.612 Y23.235 E2.3528
G1 X25.574 Y23.272 E2.3540
G1 X25.557 Y23.288 E2.3545
G1 X25.269 Y23.527 E2.3629
G1 X25.178 Y23.593 E2.3654
G1 X24.920 Y23.756 E2.3721
G1 X24.873 Y23.788 E2.3734
G1 X24.794 Y23.829 E2.3754
G1 X24.749 Y23.853 E2.3765
G1 X23.053 Y24.750 E2.4192
G1 X23.053 Y24.278 E2.4297
G1 X20.460 Y24.282 E2.4873
G1 X20.375 Y24.278 E2.4892
G1 X19.874 Y24.231 E2.5004
G1 X19.709 Y24.199 E2.5041
G1 X19.186 Y24.047 E2.5162
G1 X19.030 Y23.986 E2.5199
G1 X18.545 Y23.738 E2.5320
G1 X18.403 Y23.648 E2.5358
G1 X17.972 Y23.314 E2.5479
G1 X17.850 Y23.199 E2.5516
G1 X17.499 Y22.801 E2.5634
G1 X17.415 Y22.689 E2.5665
G1 X17.203 Y22.355 E2.5753
G1 X17.171 Y22.295 E2.5768
G1 X17.139 Y22.235 E2.5783
G1 X16.923 Y21.735 E2.5904
G1 X16.866 Y21.548 E2.5948
G1 X16.738 Y20.876 E2.6100
G1 X16.722 Y20.709 E2.6137
G1 X16.722 Y20.700 E2.6139
G1 X16.719 Y14.282 E2.7566
G1 X-16.718 Y14.282 E3.4997
G1 X-16.718 Y20.564 E3.6394
G1 X-16.720 Y20.593 E3.6400
G1 X-16.725 Y20.672 E3.6418
G1 X-16.809 Y21.333 E3.6566
G1 X-16.865 Y21.550 E3.6616
G1 X-17.086 Y22.109 E3.6749
G1 X-16.963 Y22.231 E3.6788
G1 X-17.658 Y22.996 E3.7017
G1 X-17.712 Y23.056 E3.7035
G1 X-17.830 Y23.185 E3.7074
G1 X-17.898 Y23.236 E3.7093
G1 X-18.209 Y23.510 E3.7185
G92 E0.0000
G1 E-12.0000 F7200
G1 Z1.265 F4800
G1 X24.572 Y23.499 F18000
G1 Z0.265 F4800
G1 E0.0000 F7200
G92 E0.0000
G1 X23.449 Y24.093 E0.0282 F3000
G1 X23.449 Y23.852 E0.0336
G1 X23.257 Y23.877 E0.0379
G1 X23.171 Y23.882 E0.0398
G1 X20.469 Y23.886 E0.0999
G1 X20.403 Y23.883 E0.1013
G1 X19.930 Y23.838 E0.1119
G1 X19.801 Y23.814 E0.1148
G1 X19.314 Y23.672 E0.1261
G1 X19.193 Y23.624 E0.1290
G1 X18.741 Y23.394 E0.1403
G1 X18.631 Y23.324 E0.1432
G1 X18.230 Y23.013 E0.1544
G1 X18.134 Y22.923 E0.1573
G1 X17.806 Y22.551 E0.1684
G1 X17.741 Y22.464 E0.1708
G1 X17.546 Y22.157 E0.1789
G1 X17.522 Y22.111 E0.1800
G1 X17.496 Y22.063 E0.1812
G1 X17.295 Y21.598 E0.1925
G1 X17.251 Y21.452 E0.1959
G1 X17.130 Y20.820 E0.2102
G1 X17.118 Y20.690 E0.2131
G1 X17.118 Y20.684 E0.2132
G1 X17.115 Y13.886 E0.3643
G1 X-17.114 Y13.886 E1.1251
G1 X-17.114 Y20.550 E1.2732
G1 X-17.115 Y20.566 E1.2736
G1 X-17.120 Y20.634 E1.2751
G1 X-17.199 Y21.258 E1.2891
G1 X-17.242 Y21.427 E1.2929
G1 X-17.491 Y22.055 E1.3079
G1 X-17.565 Y22.190 E1.3114
G1 X-17.510 Y22.244 E1.3131
G1 X-17.965 Y22.745 E1.3281
G1 X-18.005 Y22.789 E1.3294
G1 X-18.098 Y22.891 E1.3325
G1 X-18.148 Y22.929 E1.3339
G1 X-18.457 Y23.201 E1.3430
G1 X-18.563 Y23.278 E1.3460
G1 X-19.009 Y23.542 E1.3575
G1 X-19.145 Y23.603 E1.3608
G1 X-19.152 Y23.606 E1.3610
G1 X-19.770 Y23.806 E1.3754
G1 X-19.919 Y23.837 E1.3788
G1 X-20.402 Y23.883 E1.3896
G1 X-20.467 Y23.886 E1.3910
G1 X-23.035 Y23.886 E1.4481
G1 X-23.100 Y23.883 E1.4495
G1 X-23.571 Y23.838 E1.4600
G1 X-23.699 Y23.814 E1.4629
G1 X-24.196 Y23.669 E1.4745
G1 X-24.337 Y23.611 E1.4778
G1 X-24.911 Y23.295 E1.4924
G1 X-24.995 Y23.236 E1.4947
G1 X-25.030 Y23.213 E1.4956
G1 X-25.037 Y23.207 E1.4958
G1 X-25.041 Y23.204 E1.4959
G1 X-25.072 Y23.175 E1.4969
G1 X-25.416 Y22.872 E1.5071
G1 X-25.491 Y22.794 E1.5095
G1 X-25.714 Y22.525 E1.5172
G1 X-25.765 Y22.455 E1.5192
G1 X-25.953 Y22.159 E1.5269
G1 X-26.004 Y22.063 E1.5294
G1 X-26.067 Y21.916 E1.5329
G1 X-26.112 Y21.834 E1.5350
G1 X-26.170 Y21.693 E1.5384
G1 X-26.184 Y21.644 E1.5395
G1 X-26.205 Y21.598 E1.5406
G1 X-26.249 Y21.452 E1.5440
G1 X-26.267 Y21.360 E1.5461
G1 X-26.311 Y21.209 E1.5496
G1 X-26.333 Y21.102 E1.5520
G1 X-26.366 Y20.840 E1.5579
G1 X-26.370 Y20.820 E1.5584
G1 X-26.374 Y20.780 E1.5593
G1 X-26.377 Y20.757 E1.5598
G1 X-26.378 Y20.734 E1.5603
G1 X-26.382 Y20.691 E1.5613
G1 X-26.386 Y1.926 E1.9783
G1 X-25.574 Y1.114 E2.0038
G1 X25.574 Y1.114 E3.1407
G1 X26.386 Y1.926 E3.1662
G1 X26.386 Y20.533 E3.5797
G1 X26.383 Y20.598 E3.5812
G1 X26.338 Y21.070 E3.5917
G1 X26.314 Y21.199 E3.5946
G1 X26.169 Y21.696 E3.6062
G1 X26.111 Y21.837 E3.6096
G1 X25.795 Y22.411 E3.6241
G1 X25.709 Y22.534 E3.6274
G1 X25.705 Y22.539 E3.6276
G1 X25.374 Y22.914 E3.6387
G1 X25.336 Y22.951 E3.6399
G1 X25.306 Y22.980 E3.6408
G1 X25.293 Y22.992 E3.6412
G1 X25.026 Y23.214 E3.6489
G1 X24.955 Y23.265 E3.6509
G1 X24.704 Y23.424 E3.6575
G1 X24.670 Y23.447 E3.6584
G1 X24.608 Y23.479 E3.6599
G1 X24.572 Y23.499 E3.6608
G92 E0.0000
G1 E-12.0000 F7200
G1 Z1.265 F4800
G1 X-25.610 Y21.960 F18000
G1 Z0.265 F4800
G1 E0.0000 F7200
G92 E0.0000
G1 X-25.646 Y21.891 E0.0017 F3000
G1 X-25.711 Y21.742 E0.0054
G1 X-25.755 Y21.662 E0.0074
G1 X-25.796 Y21.562 E0.0098
G1 X-25.811 Y21.510 E0.0110
G1 X-25.832 Y21.461 E0.0122
G1 X-25.864 Y21.357 E0.0146
G1 X-25.881 Y21.268 E0.0166
G1 X-25.926 Y21.113 E0.0202
G1 X-25.942 Y21.037 E0.0219
G1 X-25.975 Y20.778 E0.0277
G1 X-25.977 Y20.764 E0.0280
G1 X-25.980 Y20.736 E0.0286
G1 X-25.982 Y20.719 E0.0290
G1 X-25.983 Y20.702 E0.0294
G1 X-25.986 Y20.672 E0.0301
G1 X-25.990 Y2.090 E0.4431
G1 X-25.410 Y1.510 E0.4613
G1 X25.410 Y1.510 E1.5909
G1 X25.990 Y2.090 E1.6091
G1 X25.990 Y20.523 E2.0188
G1 X25.988 Y20.570 E2.0198
G1 X25.946 Y21.014 E2.0297
G1 X25.928 Y21.106 E2.0318
G1 X25.795 Y21.565 E2.0424
G1 X25.753 Y21.666 E2.0449
G1 X25.459 Y22.201 E2.0584
G1 X25.394 Y22.292 E2.0609
G1 X25.086 Y22.641 E2.0713
G1 X25.061 Y22.666 E2.0721
G1 X25.039 Y22.687 E2.0727
G1 X25.030 Y22.696 E2.0730
G1 X24.783 Y22.901 E2.0801
G1 X24.732 Y22.937 E2.0815
G1 X24.488 Y23.092 E2.0880
G1 X24.467 Y23.106 E2.0885
G1 X24.423 Y23.129 E2.0896
G1 X24.396 Y23.144 E2.0903
G1 X23.845 Y23.435 E2.1042
G1 X23.845 Y23.366 E2.1057
G1 X23.591 Y23.431 E2.1115
G1 X23.530 Y23.443 E2.1129
G1 X23.219 Y23.482 E2.1199
G1 X23.158 Y23.486 E2.1213
G1 X20.478 Y23.490 E2.1808
G1 X20.430 Y23.488 E2.1819
G1 X19.986 Y23.446 E2.1918
G1 X19.894 Y23.428 E2.1939
G1 X19.443 Y23.297 E2.2043
G1 X19.356 Y23.263 E2.2064
G1 X18.937 Y23.050 E2.2168
G1 X18.858 Y23.000 E2.2189
G1 X18.487 Y22.711 E2.2294
G1 X18.419 Y22.648 E2.2314
G1 X18.114 Y22.301 E2.2417
