; G-Code generated by Simplify3D(R) Version 4.1.2
; May 16, 2021 at 3:47:10 PM
; Settings Summary
;   processName,PLA
;   applyToModels,encoder_shaft_adaptor,encoder_shaft_adaptor(2),encoder_shaft_adaptor(3)
;   profileName,Rostock MAX v3(2) (modified)
;   profileVersion,2019-01-13 09:20:56
;   baseProfile,
;   printMaterial,PLA
;   printQuality,Medium
;   printExtruders,
;   extruderName,Primary Extruder
;   extruderToolheadNumber,0
;   extruderDiameter,0.38
;   extruderAutoWidth,1
;   extruderWidth,0.46
;   extrusionMultiplier,1.25
;   extruderUseRetract,1
;   extruderRetractionDistance,12
;   extruderExtraRestartDistance,0
;   extruderRetractionZLift,1
;   extruderRetractionSpeed,7200
;   extruderUseCoasting,0
;   extruderCoastingDistance,1
;   extruderUseWipe,1
;   extruderWipeDistance,5
;   primaryExtruder,0
;   layerHeight,0.15
;   topSolidLayers,11
;   bottomSolidLayers,7
;   perimeterOutlines,5
;   printPerimetersInsideOut,1
;   startPointOption,1
;   startPointOriginX,0
;   startPointOriginY,0
;   sequentialIslands,0
;   spiralVaseMode,0
;   firstLayerHeightPercentage,90
;   firstLayerWidthPercentage,100
;   firstLayerUnderspeed,0.5
;   useRaft,0
;   raftExtruder,0
;   raftTopLayers,1
;   raftBaseLayers,1
;   raftOffset,0
;   raftSeparationDistance,0.14
;   raftTopInfill,100
;   aboveRaftSpeedMultiplier,0.3
;   useSkirt,1
;   skirtExtruder,0
;   skirtLayers,2
;   skirtOutlines,11
;   skirtOffset,0
;   usePrimePillar,0
;   primePillarExtruder,999
;   primePillarWidth,12
;   primePillarLocation,7
;   primePillarSpeedMultiplier,1
;   useOozeShield,0
;   oozeShieldExtruder,999
;   oozeShieldOffset,2
;   oozeShieldOutlines,1
;   oozeShieldSidewallShape,0
;   oozeShieldSidewallAngle,30
;   oozeShieldSpeedMultiplier,1
;   infillExtruder,0
;   internalInfillPattern,Triangular
;   externalInfillPattern,Rectilinear
;   infillPercentage,50
;   outlineOverlapPercentage,25
;   infillExtrusionWidthPercentage,120
;   minInfillLength,5
;   infillLayerInterval,1
;   internalInfillAngles,0,60,-60
;   overlapInternalInfillAngles,1
;   externalInfillAngles,45,-45
;   generateSupport,1
;   supportExtruder,0
;   supportInfillPercentage,40
;   supportExtraInflation,0
;   supportBaseLayers,2
;   denseSupportExtruder,0
;   denseSupportLayers,0
;   denseSupportInfillPercentage,70
;   supportLayerInterval,1
;   supportHorizontalPartOffset,0.3
;   supportUpperSeparationLayers,1
;   supportLowerSeparationLayers,1
;   supportType,0
;   supportGridSpacing,2
;   maxOverhangAngle,45
;   supportAngles,0
;   temperatureName,Primary Extruder,Heated Bed
;   temperatureNumber,0,1
;   temperatureSetpointCount,1,1
;   temperatureSetpointLayers,1,1
;   temperatureSetpointTemperatures,208,80
;   temperatureStabilizeAtStartup,1,1
;   temperatureHeatedBed,0,1
;   fanLayers,1
;   fanSpeeds,0
;   blipFanToFullPower,1
;   adjustSpeedForCooling,1
;   minSpeedLayerTime,15
;   minCoolingSpeedSlowdown,20
;   increaseFanForCooling,0
;   minFanLayerTime,60
;   maxCoolingFanSpeed,100
;   increaseFanForBridging,1
;   bridgingFanSpeed,100
;   use5D,1
;   relativeEdistances,0
;   allowEaxisZeroing,1
;   independentExtruderAxes,0
;   includeM10123,0
;   stickySupport,1
;   applyToolheadOffsets,0
;   gcodeXoffset,0
;   gcodeYoffset,0
;   gcodeZoffset,0
;   overrideMachineDefinition,1
;   machineTypeOverride,1
;   strokeXoverride,197
;   strokeYoverride,197
;   strokeZoverride,397
;   originOffsetXoverride,98.5
;   originOffsetYoverride,98.5
;   originOffsetZoverride,0
;   homeXdirOverride,0
;   homeYdirOverride,0
;   homeZdirOverride,1
;   flipXoverride,1
;   flipYoverride,-1
;   flipZoverride,1
;   toolheadOffsets,0,0|0,0|0,0|0,0|0,0|0,0
;   overrideFirmwareConfiguration,1
;   firmwareTypeOverride,RepRap (Marlin/Repetier/Sprinter)
;   GPXconfigOverride,r2
;   baudRateOverride,250000
;   overridePrinterModels,1
;   printerModelsOverride
;   startingGcode,G28 ; home all axes
;   layerChangeGcode,
;   retractionGcode,
;   toolChangeGcode,
;   endingGcode,M106 S0 ; turn off cooling fan,M104 S0 ; turn off extruder,M140 S0 ; turn off bed,G28 ; home axes,M84 ; disable motors
;   exportFileFormat,gcode
;   celebration,0
;   celebrationSong,Random Song
;   postProcessing,
;   defaultSpeed,5400
;   outlineUnderspeed,0.4
;   solidInfillUnderspeed,0.75
;   supportUnderspeed,0.8
;   rapidXYspeed,24000
;   rapidZspeed,18000
;   minBridgingArea,50
;   bridgingExtraInflation,0
;   bridgingExtrusionMultiplier,0.95
;   bridgingSpeedMultiplier,0.7
;   useFixedBridgingAngle,0
;   fixedBridgingAngle,0
;   applyBridgingToPerimeters,0
;   filamentDiameters,1.75|1.75|1.75|1.75|1.75|1.75
;   filamentPricesPerKg,35|46|46|46|46|46
;   filamentDensities,1.25|1.25|1.25|1.25|1.25|1.25
;   useMinPrintHeight,0
;   minPrintHeight,0.6
;   useMaxPrintHeight,0
;   maxPrintHeight,0
;   useDiaphragm,1
;   diaphragmLayerInterval,20
;   robustSlicing,1
;   mergeAllIntoSolid,0
;   onlyRetractWhenCrossingOutline,1
;   retractBetweenLayers,1
;   useRetractionMinTravel,0
;   retractionMinTravel,3
;   retractWhileWiping,0
;   onlyWipeOutlines,1
;   avoidCrossingOutline,0
;   maxMovementDetourFactor,3
;   toolChangeRetractionDistance,12
;   toolChangeExtraRestartDistance,-0.5
;   toolChangeRetractionSpeed,600
;   externalThinWallType,0
;   internalThinWallType,2
;   thinWallAllowedOverlapPercentage,10
;   singleExtrusionMinLength,1
;   singleExtrusionMinPrintingWidthPercentage,50
;   singleExtrusionMaxPrintingWidthPercentage,200
;   singleExtrusionEndpointExtension,0.2
;   horizontalSizeCompensation,0
G90
M82
M106 S0
M140 S80
M190 S80
M104 S208 T0
M109 S208 T0
G28 ; home all axes
; process PLA
; layer 1, Z = 0.135
T0
G92 E0.0000
G1 E-12.0000 F7200
; feature skirt
; tool H0.135 W0.456
G1 Z1.000 F18000
G1 X-5.573 Y0.589 F24000
G1 Z0.135 F18000
G1 E0.0000 F7200
G92 E0.0000
G1 X-4.733 Y1.078 E0.0311 F2700
G1 X-4.354 Y1.458 E0.0483
G1 X-0.596 Y7.967 E0.2887
G1 X-0.456 Y8.472 E0.3055
G1 X-0.448 Y8.987 E0.3220
G1 X-0.448 Y9.020 E0.3230
G1 X-0.456 Y9.535 E0.3395
G1 X-0.596 Y10.040 E0.3563
G1 X-4.355 Y16.550 E0.5968
G1 X-4.737 Y16.932 E0.6140
G1 X-5.615 Y17.440 E0.6465
G1 X-6.137 Y17.580 E0.6638
G1 X-13.654 Y17.580 E0.9043
G1 X-14.159 Y17.449 E0.9210
G1 X-14.588 Y17.211 E0.9367
G1 X-14.598 Y17.206 E0.9370
G1 X-14.603 Y17.203 E0.9372
G1 X-14.619 Y17.194 E0.9378
G1 X-14.624 Y17.190 E0.9380
G1 X-15.041 Y16.943 E0.9535
G1 X-15.413 Y16.566 E0.9704
G1 X-19.212 Y9.962 E1.2142
G1 X-19.351 Y9.440 E1.2315
G1 X-19.349 Y8.536 E1.2604
G1 X-19.209 Y8.016 E1.2776
G1 X-15.409 Y1.435 E1.5207
G1 X-15.027 Y1.053 E1.5380
G1 X-14.222 Y0.588 E1.5677
G1 X-13.701 Y0.448 E1.5850
G1 X-6.098 Y0.448 E1.8282
G1 X-5.573 Y0.589 E1.8456
G92 E0.0000
G1 E-12.0000 F7200
G1 Z1.135 F18000
G1 X-14.380 Y16.805 F24000
G1 Z0.135 F18000
G1 E0.0000 F7200
G92 E0.0000
G1 X-14.385 Y16.802 E0.0002 F2700
G1 X-14.390 Y16.799 E0.0004
G1 X-14.758 Y16.581 E0.0141
G1 X-15.047 Y16.287 E0.0272
G1 X-18.786 Y9.787 E0.2672
G1 X-18.894 Y9.381 E0.2806
G1 X-18.893 Y8.597 E0.3057
G1 X-18.784 Y8.192 E0.3191
G1 X-15.044 Y1.715 E0.5584
G1 X-14.747 Y1.417 E0.5718
G1 X-14.046 Y1.013 E0.5977
G1 X-13.640 Y0.904 E0.6111
G1 X-6.158 Y0.904 E0.8505
G1 X-5.750 Y1.014 E0.8640
G1 X-5.014 Y1.442 E0.8913
G1 X-4.719 Y1.738 E0.9047
G1 X-1.020 Y8.145 E1.1413
G1 X-0.911 Y8.537 E1.1544
G1 X-0.904 Y8.991 E1.1689
G1 X-0.904 Y9.016 E1.1697
G1 X-0.911 Y9.470 E1.1842
G1 X-1.020 Y9.862 E1.1972
G1 X-4.719 Y16.270 E1.4339
G1 X-5.017 Y16.568 E1.4474
G1 X-5.791 Y17.015 E1.4760
G1 X-6.197 Y17.124 E1.4895
G1 X-13.596 Y17.124 E1.7262
G1 X-13.989 Y17.022 E1.7391
G1 X-14.364 Y16.814 E1.7529
G1 X-14.380 Y16.805 E1.7535
G92 E0.0000
G1 E-12.0000 F7200
G1 Z1.135 F18000
G1 X-1.360 Y8.995 F24000
G1 Z0.135 F18000
G1 E0.0000 F7200
G92 E0.0000
G1 X-1.360 Y9.013 E0.0006 F2700
G1 X-1.366 Y9.404 E0.0131
G1 X-1.444 Y9.685 E0.0224
G1 X-5.084 Y15.990 E0.2554
G1 X-5.297 Y16.203 E0.2650
G1 X-5.967 Y16.590 E0.2897
G1 X-6.257 Y16.668 E0.2993
G1 X-13.538 Y16.668 E0.5323
G1 X-13.819 Y16.595 E0.5415
G1 X-14.141 Y16.416 E0.5533
G1 X-14.157 Y16.407 E0.5539
G1 X-14.475 Y16.219 E0.5657
G1 X-14.681 Y16.009 E0.5752
G1 X-18.361 Y9.612 E0.8113
G1 X-18.438 Y9.322 E0.8209
G1 X-18.437 Y8.658 E0.8421
G1 X-18.359 Y8.369 E0.8517
G1 X-14.679 Y1.995 E1.0871
G1 X-14.467 Y1.782 E1.0968
G1 X-13.870 Y1.438 E1.1188
G1 X-13.580 Y1.360 E1.1284
G1 X-6.219 Y1.360 E1.3639
G1 X-5.927 Y1.439 E1.3736
G1 X-5.295 Y1.806 E1.3970
G1 X-5.084 Y2.018 E1.4065
G1 X-1.444 Y8.323 E1.6394
G1 X-1.366 Y8.603 E1.6487
G1 X-1.360 Y8.995 E1.6613
G92 E0.0000
G1 E-12.0000 F7200
G1 Z1.135 F18000
G1 X-17.935 Y8.545 F24000
G1 Z0.135 F18000
G1 E0.0000 F7200
G92 E0.0000
G1 X-14.315 Y2.275 E0.2316 F2700
G1 X-14.187 Y2.147 E0.2374
G1 X-13.694 Y1.863 E0.2556
G1 X-13.520 Y1.816 E0.2614
G1 X-6.279 Y1.816 E0.4930
G1 X-6.104 Y1.863 E0.4988
G1 X-5.575 Y2.171 E0.5184
G1 X-5.449 Y2.297 E0.5241
G1 X-1.868 Y8.500 E0.7533
G1 X-1.821 Y8.668 E0.7588
G1 X-1.816 Y8.998 E0.7694
G1 X-1.816 Y9.009 E0.7697
G1 X-1.821 Y9.339 E0.7803
G1 X-1.868 Y9.507 E0.7859
G1 X-5.449 Y15.710 E1.0150
G1 X-5.577 Y15.838 E1.0208
G1 X-6.143 Y16.165 E1.0417
G1 X-6.317 Y16.212 E1.0475
G1 X-13.480 Y16.212 E1.2766
G1 X-13.648 Y16.168 E1.2822
G1 X-13.917 Y16.019 E1.2920
G1 X-13.928 Y16.013 E1.2924
G1 X-14.191 Y15.856 E1.3022
G1 X-14.316 Y15.731 E1.3079
G1 X-17.936 Y9.436 E1.5402
G1 X-17.982 Y9.262 E1.5460
G1 X-17.981 Y8.718 E1.5634
G1 X-17.935 Y8.545 E1.5691
G92 E0.0000
G1 E-12.0000 F7200
G1 Z1.135 F18000
G1 X-13.698 Y15.619 F24000
G1 Z0.135 F18000
G1 E0.0000 F7200
G92 E0.0000
G1 X-13.908 Y15.494 E0.0078 F2700
G1 X-13.950 Y15.452 E0.0097
G1 X-17.511 Y9.261 E0.2382
G1 X-17.526 Y9.203 E0.2401
G1 X-17.525 Y8.779 E0.2537
G1 X-17.510 Y8.721 E0.2556
G1 X-13.950 Y2.555 E0.4834
G1 X-13.907 Y2.512 E0.4853
G1 X-13.518 Y2.288 E0.4997
G1 X-13.460 Y2.272 E0.5016
G1 X-6.340 Y2.272 E0.7294
G1 X-6.281 Y2.288 E0.7313
G1 X-5.856 Y2.535 E0.7471
G1 X-5.814 Y2.577 E0.7490
G1 X-2.292 Y8.678 E0.9743
G1 X-2.276 Y8.734 E0.9762
G1 X-2.272 Y9.005 E0.9849
G1 X-2.276 Y9.274 E0.9935
G1 X-2.292 Y9.330 E0.9953
G1 X-5.814 Y15.430 E1.2207
G1 X-5.857 Y15.473 E1.2226
G1 X-6.319 Y15.740 E1.2397
G1 X-6.377 Y15.756 E1.2416
G1 X-13.422 Y15.756 E1.4670
G1 X-13.478 Y15.741 E1.4689
G1 X-13.693 Y15.622 E1.4767
G1 X-13.698 Y15.619 E1.4769
G92 E0.0000
G1 E-12.0000 F7200
G1 Z1.135 F18000
G1 X-2.042 Y-0.010 F24000
G1 Z0.135 F18000
G1 E0.0000 F7200
G92 E0.0000
G1 X1.948 Y6.902 E0.2553 F2700
G1 X2.274 Y8.079 E0.2944
G1 X2.288 Y8.965 E0.3228
G1 X2.288 Y9.042 E0.3252
G1 X2.274 Y9.928 E0.3536
G1 X1.948 Y11.106 E0.3927
G1 X-2.165 Y18.230 E0.6559
G1 X-3.057 Y19.122 E0.6962
G1 X-4.559 Y19.989 E0.7517
G1 X-5.777 Y20.315 E0.7920
G1 X-14.002 Y20.315 E1.0551
G1 X-15.181 Y20.011 E1.0941
G1 X-15.907 Y19.608 E1.1207
G1 X-15.941 Y19.590 E1.1219
G1 X-15.992 Y19.560 E1.1238
G1 X-16.009 Y19.550 E1.1244
G1 X-16.033 Y19.536 E1.1253
G1 X-16.741 Y19.116 E1.1516
G1 X-17.609 Y18.236 E1.1912
G1 X-21.763 Y11.014 E1.4577
G1 X-22.087 Y9.795 E1.4981
G1 X-22.084 Y8.173 E1.5500
G1 X-21.758 Y6.959 E1.5902
G1 X-17.735 Y-0.010 E1.8476
G1 X-21.763 Y-7.014 E2.1061
G1 X-22.087 Y-8.232 E2.1465
G1 X-22.084 Y-9.855 E2.1984
G1 X-21.758 Y-11.068 E2.2386
G1 X-17.599 Y-18.273 E2.5047
G1 X-16.707 Y-19.164 E2.5450
G1 X-15.278 Y-19.989 E2.5978
G1 X-14.061 Y-20.315 E2.6382
G1 X-5.736 Y-20.315 E2.9045
G1 X-4.512 Y-19.986 E2.9450
G1 X-3.048 Y-19.135 E2.9992
G1 X-2.163 Y-18.247 E3.0393
G1 X0.012 Y-14.480 E3.1785
G1 X2.201 Y-18.273 E3.3186
G1 X3.093 Y-19.164 E3.3589
G1 X4.522 Y-19.989 E3.4117
G1 X5.739 Y-20.315 E3.4520
G1 X14.064 Y-20.315 E3.7183
G1 X15.288 Y-19.986 E3.7589
G1 X16.752 Y-19.135 E3.8130
G1 X17.637 Y-18.247 E3.8532
G1 X21.748 Y-11.125 E4.1163
G1 X22.074 Y-9.948 E4.1553
G1 X22.088 Y-9.062 E4.1837
G1 X22.088 Y-8.985 E4.1861
G1 X22.074 Y-8.100 E4.2145
G1 X21.748 Y-6.922 E4.2535
G1 X17.635 Y0.203 E4.5168
G1 X16.743 Y1.094 E4.5571
G1 X15.241 Y1.961 E4.6126
G1 X14.024 Y2.288 E4.6529
G1 X5.798 Y2.288 E4.9161
G1 X4.619 Y1.983 E4.9550
G1 X3.870 Y1.568 E4.9824
G1 X3.791 Y1.523 E4.9853
G1 X3.760 Y1.504 E4.9865
G1 X3.059 Y1.088 E5.0126
G1 X2.191 Y0.209 E5.0521
G1 X0.015 Y-3.574 E5.1917
G1 X-2.042 Y-0.010 E5.3234
G92 E0.0000
G1 E-12.0000 F7200
G1 Z1.135 F18000
G1 X4.789 Y1.556 F24000
G1 Z0.135 F18000
G1 E0.0000 F7200
G92 E0.0000
G1 X4.094 Y1.171 E0.0254 F2700
G1 X4.022 Y1.130 E0.0281
G1 X3.995 Y1.113 E0.0291
G1 X3.342 Y0.726 E0.0534
G1 X2.557 Y-0.070 E0.0891
G1 X0.016 Y-4.487 E0.2522
G1 X-2.530 Y-0.077 E0.4151
G1 X-2.598 Y-0.010 E0.4181
G1 X-2.529 Y0.060 E0.4213
G1 X1.524 Y7.079 E0.6806
G1 X1.819 Y8.145 E0.7159
G1 X1.832 Y8.969 E0.7423
G1 X1.832 Y9.038 E0.7445
G1 X1.819 Y9.863 E0.7709
G1 X1.524 Y10.928 E0.8063
G1 X-2.530 Y17.950 E1.0657
G1 X-3.337 Y18.757 E1.1022
G1 X-4.735 Y19.564 E1.1538
G1 X-5.837 Y19.859 E1.1903
G1 X-13.944 Y19.859 E1.4497
G1 X-15.011 Y19.584 E1.4849
G1 X-15.690 Y19.207 E1.5098
G1 X-15.718 Y19.192 E1.5108
G1 X-15.762 Y19.166 E1.5125
G1 X-15.778 Y19.157 E1.5130
G1 X-15.798 Y19.145 E1.5138
G1 X-16.457 Y18.754 E1.5383
G1 X-17.243 Y17.958 E1.5741
G1 X-21.338 Y10.839 E1.8368
G1 X-21.631 Y9.736 E1.8733
G1 X-21.628 Y8.233 E1.9214
G1 X-21.333 Y7.136 E1.9578
G1 X-17.234 Y0.035 E2.2201
G1 X-17.187 Y-0.013 E2.2222
G1 X-17.243 Y-0.070 E2.2248
G1 X-21.338 Y-7.189 E2.4875
G1 X-21.631 Y-8.291 E2.5240
G1 X-21.628 Y-9.794 E2.5721
G1 X-21.333 Y-10.892 E2.6085
G1 X-17.234 Y-17.993 E2.8708
G1 X-16.427 Y-18.799 E2.9073
G1 X-15.102 Y-19.564 E2.9562
G1 X-14.001 Y-19.859 E2.9927
G1 X-5.796 Y-19.859 E3.2552
G1 X-4.689 Y-19.561 E3.2919
G1 X-3.329 Y-18.771 E3.3422
G1 X-2.528 Y-17.968 E3.3785
G1 X0.012 Y-13.568 E3.5410
G1 X2.566 Y-17.993 E3.7045
G1 X3.373 Y-18.799 E3.7410
G1 X4.698 Y-19.564 E3.7899
G1 X5.799 Y-19.859 E3.8264
G1 X14.004 Y-19.859 E4.0889
G1 X15.111 Y-19.561 E4.1255
G1 X16.471 Y-18.771 E4.1759
G1 X17.272 Y-17.968 E4.2121
G1 X21.324 Y-10.948 E4.4715
G1 X21.619 Y-9.882 E4.5068
G1 X21.632 Y-9.059 E4.5332
G1 X21.632 Y-8.989 E4.5354
G1 X21.619 Y-8.165 E4.5618
G1 X21.324 Y-7.100 E4.5971
G1 X17.270 Y-0.077 E4.8566
G1 X16.463 Y0.729 E4.8930
G1 X15.065 Y1.537 E4.9447
G1 X13.964 Y1.832 E4.9812
G1 X5.856 Y1.832 E5.2406
G1 X4.789 Y1.556 E5.2758
G92 E0.0000
G1 E-12.0000 F7200
G1 Z1.135 F18000
G1 X-21.175 Y-8.351 F24000
G1 Z0.135 F18000
G1 E0.0000 F7200
G92 E0.0000
G1 X-21.172 Y-9.734 E0.0442 F2700
G1 X-20.908 Y-10.716 E0.0768
G1 X-16.869 Y-17.713 E0.3353
G1 X-16.147 Y-18.434 E0.3679
G1 X-14.926 Y-19.139 E0.4130
G1 X-13.940 Y-19.403 E0.4457
G1 X-5.857 Y-19.403 E0.7043
G1 X-4.866 Y-19.136 E0.7371
G1 X-3.610 Y-18.407 E0.7836
G1 X-2.893 Y-17.688 E0.8160
G1 X0.012 Y-12.656 E1.0019
G1 X2.931 Y-17.713 E1.1887
G1 X3.653 Y-18.435 E1.2214
G1 X4.874 Y-19.139 E1.2665
G1 X5.859 Y-19.403 E1.2991
G1 X13.943 Y-19.403 E1.5578
G1 X14.934 Y-19.136 E1.5906
G1 X16.190 Y-18.407 E1.6371
G1 X16.906 Y-17.688 E1.6695
G1 X20.900 Y-10.770 E1.9251
G1 X21.164 Y-9.817 E1.9567
G1 X21.176 Y-9.055 E1.9811
G1 X21.176 Y-8.993 E1.9831
G1 X21.164 Y-8.231 E2.0075
G1 X20.900 Y-7.277 E2.0391
G1 X16.905 Y-0.357 E2.2947
G1 X16.183 Y0.365 E2.3274
G1 X14.889 Y1.112 E2.3752
G1 X13.903 Y1.376 E2.4078
G1 X5.914 Y1.376 E2.6635
G1 X4.959 Y1.129 E2.6950
G1 X4.317 Y0.773 E2.7185
G1 X4.253 Y0.736 E2.7208
G1 X4.230 Y0.722 E2.7217
G1 X3.626 Y0.364 E2.7442
G1 X2.923 Y-0.348 E2.7762
G1 X0.017 Y-5.401 E2.9627
G1 X-2.895 Y-0.357 E3.1490
G1 X-3.242 Y-0.010 E3.1647
G1 X-2.894 Y0.339 E3.1805
G1 X1.100 Y7.257 E3.4360
G1 X1.364 Y8.210 E3.4677
G1 X1.376 Y8.973 E3.4920
G1 X1.376 Y9.035 E3.4940
G1 X1.364 Y9.797 E3.5184
G1 X1.100 Y10.751 E3.5501
G1 X-2.895 Y17.670 E3.8057
G1 X-3.617 Y18.392 E3.8384
G1 X-4.911 Y19.139 E3.8862
G1 X-5.897 Y19.403 E3.9188
G1 X-13.886 Y19.403 E4.1744
G1 X-14.840 Y19.157 E4.2060
G1 X-15.473 Y18.806 E4.2291
G1 X-15.495 Y18.794 E4.2299
G1 X-15.533 Y18.772 E4.2313
G1 X-15.546 Y18.765 E4.2318
G1 X-15.564 Y18.754 E4.2324
G1 X-16.174 Y18.392 E4.2551
G1 X-16.877 Y17.679 E4.2872
G1 X-20.912 Y10.663 E4.5461
G1 X-21.175 Y9.677 E4.5788
G1 X-21.172 Y8.294 E4.6230
G1 X-20.909 Y7.312 E4.6555
G1 X-16.869 Y0.315 E4.9140
G1 X-16.544 Y-0.010 E4.9287
G1 X-16.877 Y-0.348 E4.9439
G1 X-20.912 Y-7.364 E5.2028
G1 X-21.175 Y-8.351 E5.2355
G92 E0.0000
G1 E-12.0000 F7200
