; G-Code generated by Simplify3D(R) Version 4.1.2
; Mar 17, 2021 at 11:28:49 AM
; Settings Summary
;   processName,PLA
;   applyToModels,PSU Cover
;   profileName,Rostock MAX v3(2) (modified)
;   profileVersion,2019-01-13 09:20:56
;   baseProfile,
;   printMaterial,PLA
;   printQuality,Medium
;   printExtruders,
;   extruderName,Primary Extruder
;   extruderToolheadNumber,0
;   extruderDiameter,0.33
;   extruderAutoWidth,1
;   extruderWidth,0.4
;   extrusionMultiplier,1
;   extruderUseRetract,1
;   extruderRetractionDistance,12
;   extruderExtraRestartDistance,0
;   extruderRetractionZLift,1
;   extruderRetractionSpeed,10800
;   extruderUseCoasting,0
;   extruderCoastingDistance,1
;   extruderUseWipe,1
;   extruderWipeDistance,5
;   primaryExtruder,0
;   layerHeight,0.15
;   topSolidLayers,7
;   bottomSolidLayers,7
;   perimeterOutlines,4
;   printPerimetersInsideOut,1
;   startPointOption,1
;   startPointOriginX,0
;   startPointOriginY,0
;   sequentialIslands,0
;   spiralVaseMode,0
;   firstLayerHeightPercentage,90
;   firstLayerWidthPercentage,100
;   firstLayerUnderspeed,0.5
;   useRaft,0
;   raftExtruder,0
;   raftTopLayers,1
;   raftBaseLayers,1
;   raftOffset,0
;   raftSeparationDistance,0.14
;   raftTopInfill,100
;   aboveRaftSpeedMultiplier,0.3
;   useSkirt,0
;   skirtExtruder,0
;   skirtLayers,2
;   skirtOutlines,22
;   skirtOffset,0
;   usePrimePillar,0
;   primePillarExtruder,999
;   primePillarWidth,12
;   primePillarLocation,7
;   primePillarSpeedMultiplier,1
;   useOozeShield,0
;   oozeShieldExtruder,999
;   oozeShieldOffset,2
;   oozeShieldOutlines,1
;   oozeShieldSidewallShape,0
;   oozeShieldSidewallAngle,30
;   oozeShieldSpeedMultiplier,1
;   infillExtruder,0
;   internalInfillPattern,Triangular
;   externalInfillPattern,Rectilinear
;   infillPercentage,50
;   outlineOverlapPercentage,20
;   infillExtrusionWidthPercentage,150
;   minInfillLength,5
;   infillLayerInterval,1
;   internalInfillAngles,0,60,-60
;   overlapInternalInfillAngles,1
;   externalInfillAngles,45,-45
;   generateSupport,1
;   supportExtruder,0
;   supportInfillPercentage,20
;   supportExtraInflation,0
;   supportBaseLayers,0
;   denseSupportExtruder,0
;   denseSupportLayers,0
;   denseSupportInfillPercentage,70
;   supportLayerInterval,1
;   supportHorizontalPartOffset,0.3
;   supportUpperSeparationLayers,1
;   supportLowerSeparationLayers,1
;   supportType,0
;   supportGridSpacing,3
;   maxOverhangAngle,45
;   supportAngles,0
;   temperatureName,Primary Extruder,Heated Bed
;   temperatureNumber,0,1
;   temperatureSetpointCount,1,1
;   temperatureSetpointLayers,1,1
;   temperatureSetpointTemperatures,208,80
;   temperatureStabilizeAtStartup,1,1
;   temperatureHeatedBed,0,1
;   fanLayers,1
;   fanSpeeds,0
;   blipFanToFullPower,1
;   adjustSpeedForCooling,1
;   minSpeedLayerTime,15
;   minCoolingSpeedSlowdown,20
;   increaseFanForCooling,0
;   minFanLayerTime,60
;   maxCoolingFanSpeed,100
;   increaseFanForBridging,1
;   bridgingFanSpeed,100
;   use5D,1
;   relativeEdistances,0
;   allowEaxisZeroing,1
;   independentExtruderAxes,0
;   includeM10123,0
;   stickySupport,1
;   applyToolheadOffsets,0
;   gcodeXoffset,0
;   gcodeYoffset,0
;   gcodeZoffset,-0.15
;   overrideMachineDefinition,1
;   machineTypeOverride,1
;   strokeXoverride,197
;   strokeYoverride,197
;   strokeZoverride,397
;   originOffsetXoverride,98.5
;   originOffsetYoverride,98.5
;   originOffsetZoverride,0
;   homeXdirOverride,0
;   homeYdirOverride,0
;   homeZdirOverride,1
;   flipXoverride,1
;   flipYoverride,-1
;   flipZoverride,1
;   toolheadOffsets,0,0|0,0|0,0|0,0|0,0|0,0
;   overrideFirmwareConfiguration,1
;   firmwareTypeOverride,RepRap (Marlin/Repetier/Sprinter)
;   GPXconfigOverride,r2
;   baudRateOverride,250000
;   overridePrinterModels,1
;   printerModelsOverride
;   startingGcode,G28 ; home all axes
;   layerChangeGcode,
;   retractionGcode,
;   toolChangeGcode,
;   endingGcode,M106 S0 ; turn off cooling fan,M104 S0 ; turn off extruder,M140 S0 ; turn off bed,G28 ; home axes,M84 ; disable motors
;   exportFileFormat,gcode
;   celebration,0
;   celebrationSong,Random Song
;   postProcessing,
;   defaultSpeed,6300
;   outlineUnderspeed,0.4
;   solidInfillUnderspeed,0.8
;   supportUnderspeed,0.8
;   rapidXYspeed,18000
;   rapidZspeed,2400
;   minBridgingArea,50
;   bridgingExtraInflation,0
;   bridgingExtrusionMultiplier,0.95
;   bridgingSpeedMultiplier,0.7
;   useFixedBridgingAngle,0
;   fixedBridgingAngle,0
;   applyBridgingToPerimeters,0
;   filamentDiameters,1.75|1.75|1.75|1.75|1.75|1.75
;   filamentPricesPerKg,35|46|46|46|46|46
;   filamentDensities,1.25|1.25|1.25|1.25|1.25|1.25
;   useMinPrintHeight,1
;   minPrintHeight,46.83
;   useMaxPrintHeight,0
;   maxPrintHeight,0
;   useDiaphragm,1
;   diaphragmLayerInterval,20
;   robustSlicing,1
;   mergeAllIntoSolid,0
;   onlyRetractWhenCrossingOutline,1
;   retractBetweenLayers,1
;   useRetractionMinTravel,0
;   retractionMinTravel,3
;   retractWhileWiping,0
;   onlyWipeOutlines,1
;   avoidCrossingOutline,0
;   maxMovementDetourFactor,3
;   toolChangeRetractionDistance,12
;   toolChangeExtraRestartDistance,-0.5
;   toolChangeRetractionSpeed,600
;   externalThinWallType,0
;   internalThinWallType,2
;   thinWallAllowedOverlapPercentage,10
;   singleExtrusionMinLength,1
;   singleExtrusionMinPrintingWidthPercentage,50
;   singleExtrusionMaxPrintingWidthPercentage,200
;   singleExtrusionEndpointExtension,0.2
;   horizontalSizeCompensation,0
G90
M82
M106 S0
M140 S80
M190 S80
M104 S208 T0
M109 S208 T0
G28 ; home all axes
; process PLA
; layer 1, Z = 46.830
T0
G92 E0.0000
G1 E-12.0000 F10800
; feature inner perimeter
; tool H0.135 W0.396
G1 Z46.830 F2400
G1 X72.280 Y-26.110 F18000
G1 E0.0000 F10800
G92 E0.0000
G1 X-34.948 Y-26.110 E2.3833 F2205
G1 X-34.948 Y-43.403 E2.7676
G1 X72.280 Y-43.403 E5.1509
G1 X72.280 Y-26.110 E5.5352
G1 X72.552 Y-46.110 F18000
G92 E0.0000
G1 X72.552 Y-91.046 E0.9987 F2205
G1 X-35.220 Y-91.046 E3.3941
G1 X-35.220 Y-84.463 E3.5404
G1 X-37.448 Y-84.463 E3.5899
G1 X-37.448 Y-93.337 E3.7871
G1 X74.780 Y-93.338 E6.2815
G1 X74.780 Y-46.110 E7.3312
G1 X72.552 Y-46.110 E7.3807
G92 E0.0000
G1 E-12.0000 F10800
G1 Z47.830 F2400
G1 X-35.220 Y-46.110 F18000
G1 Z46.830 F2400
G1 E0.0000 F10800
G92 E0.0000
G1 X-37.448 Y-46.110 E0.0495 F2205
G1 X-37.448 Y-76.023 E0.7144
G1 X-35.220 Y-76.023 E0.7639
G1 X-35.220 Y-46.110 E1.4287
G1 X-35.344 Y-45.714 F18000
G92 E0.0000
G1 X-37.844 Y-45.714 E0.0556 F2205
G1 X-37.844 Y-76.181 E0.7327
G1 X-37.734 Y-76.419 E0.7385
G1 X-34.824 Y-76.419 E0.8032
G1 X-34.824 Y-43.799 E1.5282
G1 X72.156 Y-43.799 E3.9060
G1 X72.156 Y-90.650 E4.9473
G1 X-34.824 Y-90.650 E7.3250
G1 X-34.824 Y-84.067 E7.4713
G1 X-37.732 Y-84.067 E7.5360
G1 X-37.844 Y-84.308 E7.5419
G1 X-37.844 Y-93.733 E7.7514
G1 X75.176 Y-93.734 E10.2633
G1 X75.176 Y-45.714 E11.3306
G1 X72.676 Y-45.714 E11.3862
G1 X72.676 Y-25.714 E11.8307
G1 X-35.344 Y-25.714 E14.2316
G1 X-35.344 Y-45.714 E14.6761
G1 X-35.740 Y-45.318 F18000
G92 E0.0000
G1 X-38.240 Y-45.318 E0.0556 F2205
G1 X-38.240 Y-76.269 E0.7435
G1 X-38.079 Y-76.615 E0.7520
G1 X-37.998 Y-76.815 E0.7568
G1 X-34.428 Y-76.816 E0.8361
G1 X-34.428 Y-44.195 E1.5611
G1 X71.760 Y-44.195 E3.9213
G1 X71.760 Y-90.254 E4.9450
G1 X-34.428 Y-90.254 E7.3051
G1 X-34.428 Y-83.671 E7.4514
G1 X-37.999 Y-83.671 E7.5308
G1 X-38.102 Y-83.923 E7.5368
G1 X-38.240 Y-84.220 E7.5441
G1 X-38.240 Y-93.688 E7.7545
G1 X-38.222 Y-93.835 E7.7578
G1 X-38.210 Y-93.872 E7.7587
G1 X-38.174 Y-93.944 E7.7605
G1 X-38.148 Y-93.979 E7.7615
G1 X-38.091 Y-94.036 E7.7633
G1 X-38.033 Y-94.076 E7.7648
G1 X-37.993 Y-94.096 E7.7658
G1 X-37.908 Y-94.121 E7.7678
G1 X-37.851 Y-94.129 E7.7690
G1 X75.127 Y-94.130 E10.2801
G1 X75.269 Y-94.112 E10.2833
G1 X75.366 Y-94.072 E10.2856
G1 X75.449 Y-94.008 E10.2880
G1 X75.513 Y-93.925 E10.2903
G1 X75.553 Y-93.828 E10.2926
G1 X75.572 Y-93.685 E10.2958
G1 X75.572 Y-45.318 E11.3708
G1 X73.072 Y-45.318 E11.4264
G1 X73.072 Y-25.763 E11.8610
G1 X73.053 Y-25.621 E11.8642
G1 X73.013 Y-25.524 E11.8665
G1 X72.949 Y-25.441 E11.8689
G1 X72.866 Y-25.377 E11.8712
G1 X72.769 Y-25.337 E11.8735
G1 X72.627 Y-25.318 E11.8767
G1 X-35.295 Y-25.318 E14.2754
G1 X-35.438 Y-25.337 E14.2786
G1 X-35.535 Y-25.377 E14.2809
G1 X-35.618 Y-25.441 E14.2833
G1 X-35.682 Y-25.524 E14.2856
G1 X-35.722 Y-25.621 E14.2879
G1 X-35.740 Y-25.763 E14.2911
G1 X-35.740 Y-45.318 E14.7257
; feature outer perimeter
G1 X-36.136 Y-44.922 F18000
G92 E0.0000
G1 X-38.636 Y-44.922 E0.0556 F1260
G1 X-38.636 Y-76.356 E0.7542
G1 X-38.443 Y-76.774 E0.7644
G1 X-38.264 Y-77.211 E0.7749
G1 X-34.032 Y-77.212 E0.8690
G1 X-34.032 Y-44.591 E1.5940
G1 X71.364 Y-44.591 E3.9366
G1 X71.364 Y-89.858 E4.9427
G1 X-34.032 Y-89.858 E7.2852
G1 X-34.032 Y-83.275 E7.4315
G1 X-38.264 Y-83.275 E7.5256
G1 X-38.465 Y-83.765 E7.5373
G1 X-38.636 Y-84.132 E7.5463
G1 X-38.636 Y-93.712 E7.7593
G1 X-38.611 Y-93.920 E7.7639
G1 X-38.577 Y-94.024 E7.7663
G1 X-38.512 Y-94.152 E7.7695
G1 X-38.450 Y-94.238 E7.7719
G1 X-38.345 Y-94.342 E7.7752
G1 X-38.234 Y-94.419 E7.7782
G1 X-38.137 Y-94.466 E7.7806
G1 X-37.990 Y-94.510 E7.7840
G1 X-37.876 Y-94.525 E7.7865
G1 X75.153 Y-94.526 E10.2987
G1 X75.373 Y-94.497 E10.3037
G1 X75.566 Y-94.417 E10.3083
G1 X75.731 Y-94.290 E10.3129
G1 X75.859 Y-94.125 E10.3176
G1 X75.939 Y-93.932 E10.3222
G1 X75.968 Y-93.711 E10.3272
G1 X75.968 Y-44.922 E11.4116
G1 X73.468 Y-44.922 E11.4671
G1 X73.468 Y-25.737 E11.8935
G1 X73.439 Y-25.517 E11.8985
G1 X73.359 Y-25.324 E11.9031
G1 X73.231 Y-25.158 E11.9078
G1 X73.066 Y-25.031 E11.9124
G1 X72.873 Y-24.951 E11.9170
G1 X72.653 Y-24.922 E11.9220
G1 X-35.321 Y-24.922 E14.3218
G1 X-35.541 Y-24.951 E14.3267
G1 X-35.735 Y-25.031 E14.3314
G1 X-35.900 Y-25.158 E14.3360
G1 X-36.027 Y-25.324 E14.3407
G1 X-36.107 Y-25.517 E14.3453
G1 X-36.136 Y-25.737 E14.3503
G1 X-36.136 Y-44.922 E14.7767
G1 X-38.636 Y-44.922 F1260
G1 X-38.636 Y-47.422
; feature bridge
M106 S255
G1 X-36.774 Y-46.427 F18000
G92 E0.0000
G1 X-36.774 Y-75.706 E0.6182 F2205
G1 X-36.378 Y-75.706 E0.6266
G1 X-36.378 Y-46.427 E1.2448
G1 X-35.982 Y-46.427 E1.2532
G1 X-35.982 Y-75.706 E1.8714
G1 X-35.586 Y-75.707 E1.8798
G1 X-35.586 Y-46.427 E2.4980
G1 X-34.398 Y-26.427 F18000
G92 E0.0000
G1 X-34.398 Y-43.086 E0.3518 F2205
G1 X-34.002 Y-43.086 E0.3601
G1 X-34.002 Y-26.427 E0.7119
G1 X-33.606 Y-26.427 E0.7202
G1 X-33.606 Y-43.086 E1.0720
G1 X-33.210 Y-43.086 E1.0803
G1 X-33.210 Y-26.427 E1.4321
G1 X-32.814 Y-26.427 E1.4405
G1 X-32.814 Y-43.086 E1.7922
G1 X-32.418 Y-43.086 E1.8006
G1 X-32.418 Y-26.427 E2.1523
G1 X-32.022 Y-26.427 E2.1607
G1 X-32.022 Y-43.086 E2.5124
G1 X-31.626 Y-43.086 E2.5208
G1 X-31.626 Y-26.427 E2.8726
G1 X-31.230 Y-26.427 E2.8809
G1 X-31.230 Y-43.086 E3.2327
G1 X-30.834 Y-43.086 E3.2410
G1 X-30.834 Y-26.427 E3.5928
G1 X-30.438 Y-26.427 E3.6011
G1 X-30.438 Y-43.086 E3.9529
G1 X-30.042 Y-43.086 E3.9613
G1 X-30.042 Y-26.427 E4.3130
G1 X-29.646 Y-26.427 E4.3214
G1 X-29.646 Y-43.086 E4.6731
G1 X-29.250 Y-43.086 E4.6815
G1 X-29.250 Y-26.427 E5.0332
G1 X-28.854 Y-26.427 E5.0416
G1 X-28.854 Y-43.086 E5.3934
G1 X-28.458 Y-43.086 E5.4017
G1 X-28.458 Y-26.427 E5.7535
G1 X-28.062 Y-26.427 E5.7618
G1 X-28.062 Y-43.086 E6.1136
G1 X-27.666 Y-43.086 E6.1219
G1 X-27.666 Y-26.427 E6.4737
G1 X-27.270 Y-26.427 E6.4821
G1 X-27.270 Y-43.086 E6.8338
G1 X-26.874 Y-43.086 E6.8422
G1 X-26.874 Y-26.427 E7.1939
G1 X-26.478 Y-26.427 E7.2023
G1 X-26.478 Y-43.086 E7.5540
G1 X-26.082 Y-43.086 E7.5624
G1 X-26.082 Y-26.427 E7.9142
G1 X-25.686 Y-26.427 E7.9225
G1 X-25.686 Y-43.086 E8.2743
G1 X-25.290 Y-43.086 E8.2826
G1 X-25.290 Y-26.427 E8.6344
G1 X-24.894 Y-26.427 E8.6427
G1 X-24.894 Y-43.086 E8.9945
G1 X-24.498 Y-43.086 E9.0029
G1 X-24.498 Y-26.427 E9.3546
G1 X-24.102 Y-26.427 E9.3630
G1 X-24.102 Y-43.086 E9.7147
G1 X-23.706 Y-43.086 E9.7231
G1 X-23.706 Y-26.427 E10.0748
G1 X-23.310 Y-26.427 E10.0832
G1 X-23.310 Y-43.086 E10.4350
G1 X-22.914 Y-43.086 E10.4433
G1 X-22.914 Y-26.427 E10.7951
G1 X-22.518 Y-26.427 E10.8034
G1 X-22.518 Y-43.086 E11.1552
G1 X-22.122 Y-43.086 E11.1635
G1 X-22.122 Y-26.427 E11.5153
G1 X-21.726 Y-26.427 E11.5237
G1 X-21.726 Y-43.086 E11.8754
G1 X-21.330 Y-43.086 E11.8838
G1 X-21.330 Y-26.427 E12.2355
G1 X-20.934 Y-26.427 E12.2439
G1 X-20.934 Y-43.086 E12.5956
G1 X-20.538 Y-43.086 E12.6040
G1 X-20.538 Y-26.427 E12.9558
G1 X-20.142 Y-26.427 E12.9641
G1 X-20.142 Y-43.086 E13.3159
G1 X-19.746 Y-43.086 E13.3242
G1 X-19.746 Y-26.427 E13.6760
G1 X-19.350 Y-26.427 E13.6844
G1 X-19.350 Y-43.086 E14.0361
G1 X-18.954 Y-43.086 E14.0445
G1 X-18.954 Y-26.427 E14.3962
G1 X-18.558 Y-26.427 E14.4046
G1 X-18.558 Y-43.086 E14.7563
G1 X-18.162 Y-43.086 E14.7647
G1 X-18.162 Y-26.427 E15.1164
G1 X-17.766 Y-26.427 E15.1248
G1 X-17.766 Y-43.086 E15.4766
G1 X-17.370 Y-43.086 E15.4849
G1 X-17.370 Y-26.427 E15.8367
G1 X-16.974 Y-26.427 E15.8450
G1 X-16.974 Y-43.086 E16.1968
G1 X-16.578 Y-43.086 E16.2052
G1 X-16.578 Y-26.427 E16.5569
G1 X-16.182 Y-26.427 E16.5653
G1 X-16.182 Y-43.086 E16.9170
G1 X-15.786 Y-43.086 E16.9254
G1 X-15.786 Y-26.427 E17.2771
G1 X-15.390 Y-26.427 E17.2855
G1 X-15.390 Y-43.086 E17.6372
G1 X-14.994 Y-43.086 E17.6456
G1 X-14.994 Y-26.427 E17.9974
G1 X-14.598 Y-26.427 E18.0057
G1 X-14.598 Y-43.086 E18.3575
G1 X-14.202 Y-43.086 E18.3658
G1 X-14.202 Y-26.427 E18.7176
G1 X-13.806 Y-26.427 E18.7260
G1 X-13.806 Y-43.086 E19.0777
G1 X-13.410 Y-43.086 E19.0861
G1 X-13.410 Y-26.427 E19.4378
G1 X-13.014 Y-26.427 E19.4462
G1 X-13.014 Y-43.086 E19.7979
G1 X-12.618 Y-43.086 E19.8063
G1 X-12.618 Y-26.427 E20.1581
G1 X-12.222 Y-26.427 E20.1664
G1 X-12.222 Y-43.086 E20.5182
G1 X-11.826 Y-43.086 E20.5265
G1 X-11.826 Y-26.427 E20.8783
G1 X-11.430 Y-26.427 E20.8866
G1 X-11.430 Y-43.086 E21.2384
G1 X-11.034 Y-43.086 E21.2468
G1 X-11.034 Y-26.427 E21.5985
G1 X-10.638 Y-26.427 E21.6069
G1 X-10.638 Y-43.086 E21.9586
G1 X-10.242 Y-43.086 E21.9670
G1 X-10.242 Y-26.427 E22.3187
G1 X-9.846 Y-26.427 E22.3271
G1 X-9.846 Y-43.086 E22.6789
G1 X-9.450 Y-43.086 E22.6872
G1 X-9.450 Y-26.427 E23.0390
G1 X-9.054 Y-26.427 E23.0473
G1 X-9.054 Y-43.086 E23.3991
G1 X-8.658 Y-43.086 E23.4074
G1 X-8.658 Y-26.427 E23.7592
G1 X-8.262 Y-26.427 E23.7676
G1 X-8.262 Y-43.086 E24.1193
G1 X-7.866 Y-43.086 E24.1277
G1 X-7.866 Y-26.427 E24.4794
G1 X-7.470 Y-26.427 E24.4878
G1 X-7.470 Y-43.086 E24.8395
G1 X-7.074 Y-43.086 E24.8479
G1 X-7.074 Y-26.427 E25.1997
G1 X-6.678 Y-26.427 E25.2080
G1 X-6.678 Y-43.086 E25.5598
G1 X-6.282 Y-43.086 E25.5681
G1 X-6.282 Y-26.427 E25.9199
G1 X-5.886 Y-26.427 E25.9282
G1 X-5.886 Y-43.086 E26.2800
G1 X-5.490 Y-43.086 E26.2884
G1 X-5.490 Y-26.427 E26.6401
G1 X-5.094 Y-26.427 E26.6485
G1 X-5.094 Y-43.086 E27.0002
G1 X-4.698 Y-43.086 E27.0086
G1 X-4.698 Y-26.427 E27.3603
G1 X-4.302 Y-26.427 E27.3687
G1 X-4.302 Y-43.086 E27.7205
G1 X-3.906 Y-43.086 E27.7288
G1 X-3.906 Y-26.427 E28.0806
G1 X-3.510 Y-26.427 E28.0889
G1 X-3.510 Y-43.086 E28.4407
G1 X-3.114 Y-43.086 E28.4490
G1 X-3.114 Y-26.427 E28.8008
G1 X-2.718 Y-26.427 E28.8092
G1 X-2.718 Y-43.086 E29.1609
G1 X-2.322 Y-43.086 E29.1693
G1 X-2.322 Y-26.427 E29.5210
G1 X-1.926 Y-26.427 E29.5294
G1 X-1.926 Y-43.086 E29.8811
G1 X-1.530 Y-43.086 E29.8895
G1 X-1.530 Y-26.427 E30.2413
G1 X-1.134 Y-26.427 E30.2496
G1 X-1.134 Y-43.086 E30.6014
G1 X-0.738 Y-43.086 E30.6097
G1 X-0.738 Y-26.427 E30.9615
G1 X-0.342 Y-26.427 E30.9698
G1 X-0.342 Y-43.086 E31.3216
G1 X0.054 Y-43.086 E31.3300
G1 X0.054 Y-26.427 E31.6817
G1 X0.450 Y-26.427 E31.6901
G1 X0.450 Y-43.086 E32.0418
G1 X0.846 Y-43.086 E32.0502
G1 X0.846 Y-26.427 E32.4019
G1 X1.242 Y-26.427 E32.4103
G1 X1.242 Y-43.086 E32.7621
G1 X1.638 Y-43.086 E32.7704
G1 X1.638 Y-26.427 E33.1222
G1 X2.034 Y-26.427 E33.1305
G1 X2.034 Y-43.086 E33.4823
G1 X2.430 Y-43.086 E33.4906
G1 X2.430 Y-26.427 E33.8424
G1 X2.826 Y-26.427 E33.8508
G1 X2.826 Y-43.086 E34.2025
G1 X3.222 Y-43.086 E34.2109
G1 X3.222 Y-26.427 E34.5626
G1 X3.618 Y-26.427 E34.5710
G1 X3.618 Y-43.086 E34.9227
G1 X4.014 Y-43.086 E34.9311
G1 X4.014 Y-26.427 E35.2829
G1 X4.410 Y-26.427 E35.2912
G1 X4.410 Y-43.086 E35.6430
G1 X4.806 Y-43.086 E35.6513
G1 X4.806 Y-26.427 E36.0031
G1 X5.202 Y-26.427 E36.0115
