; G-Code generated by Simplify3D(R) Version 4.1.2
; May 7, 2021 at 8:42:05 AM
; Settings Summary
;   processName,PLA
;   applyToModels,EHA_large_wall(2),EHA_large_wall
;   profileName,Rostock MAX v3(2) (modified)
;   profileVersion,2019-01-13 09:20:56
;   baseProfile,
;   printMaterial,PLA
;   printQuality,Medium
;   printExtruders,
;   extruderName,Primary Extruder
;   extruderToolheadNumber,0
;   extruderDiameter,0.38
;   extruderAutoWidth,1
;   extruderWidth,0.46
;   extrusionMultiplier,1
;   extruderUseRetract,1
;   extruderRetractionDistance,12
;   extruderExtraRestartDistance,0
;   extruderRetractionZLift,1
;   extruderRetractionSpeed,7200
;   extruderUseCoasting,0
;   extruderCoastingDistance,1
;   extruderUseWipe,1
;   extruderWipeDistance,5
;   primaryExtruder,0
;   layerHeight,0.15
;   topSolidLayers,11
;   bottomSolidLayers,7
;   perimeterOutlines,5
;   printPerimetersInsideOut,1
;   startPointOption,1
;   startPointOriginX,0
;   startPointOriginY,0
;   sequentialIslands,0
;   spiralVaseMode,0
;   firstLayerHeightPercentage,90
;   firstLayerWidthPercentage,100
;   firstLayerUnderspeed,0.5
;   useRaft,0
;   raftExtruder,0
;   raftTopLayers,1
;   raftBaseLayers,1
;   raftOffset,0
;   raftSeparationDistance,0.14
;   raftTopInfill,100
;   aboveRaftSpeedMultiplier,0.3
;   useSkirt,1
;   skirtExtruder,0
;   skirtLayers,2
;   skirtOutlines,11
;   skirtOffset,0
;   usePrimePillar,0
;   primePillarExtruder,999
;   primePillarWidth,12
;   primePillarLocation,7
;   primePillarSpeedMultiplier,1
;   useOozeShield,0
;   oozeShieldExtruder,999
;   oozeShieldOffset,2
;   oozeShieldOutlines,1
;   oozeShieldSidewallShape,0
;   oozeShieldSidewallAngle,30
;   oozeShieldSpeedMultiplier,1
;   infillExtruder,0
;   internalInfillPattern,Triangular
;   externalInfillPattern,Rectilinear
;   infillPercentage,50
;   outlineOverlapPercentage,25
;   infillExtrusionWidthPercentage,120
;   minInfillLength,5
;   infillLayerInterval,1
;   internalInfillAngles,0,60,-60
;   overlapInternalInfillAngles,1
;   externalInfillAngles,45,-45
;   generateSupport,1
;   supportExtruder,0
;   supportInfillPercentage,40
;   supportExtraInflation,0
;   supportBaseLayers,2
;   denseSupportExtruder,0
;   denseSupportLayers,0
;   denseSupportInfillPercentage,70
;   supportLayerInterval,1
;   supportHorizontalPartOffset,0.3
;   supportUpperSeparationLayers,1
;   supportLowerSeparationLayers,1
;   supportType,0
;   supportGridSpacing,2
;   maxOverhangAngle,45
;   supportAngles,0
;   temperatureName,Primary Extruder,Heated Bed
;   temperatureNumber,0,1
;   temperatureSetpointCount,1,1
;   temperatureSetpointLayers,1,1
;   temperatureSetpointTemperatures,208,80
;   temperatureStabilizeAtStartup,1,1
;   temperatureHeatedBed,0,1
;   fanLayers,1
;   fanSpeeds,0
;   blipFanToFullPower,1
;   adjustSpeedForCooling,1
;   minSpeedLayerTime,15
;   minCoolingSpeedSlowdown,20
;   increaseFanForCooling,0
;   minFanLayerTime,60
;   maxCoolingFanSpeed,100
;   increaseFanForBridging,1
;   bridgingFanSpeed,100
;   use5D,1
;   relativeEdistances,0
;   allowEaxisZeroing,1
;   independentExtruderAxes,0
;   includeM10123,0
;   stickySupport,1
;   applyToolheadOffsets,0
;   gcodeXoffset,0
;   gcodeYoffset,0
;   gcodeZoffset,0
;   overrideMachineDefinition,1
;   machineTypeOverride,1
;   strokeXoverride,197
;   strokeYoverride,197
;   strokeZoverride,397
;   originOffsetXoverride,98.5
;   originOffsetYoverride,98.5
;   originOffsetZoverride,0
;   homeXdirOverride,0
;   homeYdirOverride,0
;   homeZdirOverride,1
;   flipXoverride,1
;   flipYoverride,-1
;   flipZoverride,1
;   toolheadOffsets,0,0|0,0|0,0|0,0|0,0|0,0
;   overrideFirmwareConfiguration,1
;   firmwareTypeOverride,RepRap (Marlin/Repetier/Sprinter)
;   GPXconfigOverride,r2
;   baudRateOverride,250000
;   overridePrinterModels,1
;   printerModelsOverride
;   startingGcode,G28 ; home all axes
;   layerChangeGcode,
;   retractionGcode,
;   toolChangeGcode,
;   endingGcode,M106 S0 ; turn off cooling fan,M104 S0 ; turn off extruder,M140 S0 ; turn off bed,G28 ; home axes,M84 ; disable motors
;   exportFileFormat,gcode
;   celebration,0
;   celebrationSong,Random Song
;   postProcessing,
;   defaultSpeed,5400
;   outlineUnderspeed,0.4
;   solidInfillUnderspeed,0.75
;   supportUnderspeed,0.8
;   rapidXYspeed,24000
;   rapidZspeed,18000
;   minBridgingArea,50
;   bridgingExtraInflation,0
;   bridgingExtrusionMultiplier,0.95
;   bridgingSpeedMultiplier,0.7
;   useFixedBridgingAngle,0
;   fixedBridgingAngle,0
;   applyBridgingToPerimeters,0
;   filamentDiameters,1.75|1.75|1.75|1.75|1.75|1.75
;   filamentPricesPerKg,35|46|46|46|46|46
;   filamentDensities,1.25|1.25|1.25|1.25|1.25|1.25
;   useMinPrintHeight,0
;   minPrintHeight,0.6
;   useMaxPrintHeight,0
;   maxPrintHeight,0
;   useDiaphragm,1
;   diaphragmLayerInterval,20
;   robustSlicing,1
;   mergeAllIntoSolid,0
;   onlyRetractWhenCrossingOutline,1
;   retractBetweenLayers,1
;   useRetractionMinTravel,0
;   retractionMinTravel,3
;   retractWhileWiping,0
;   onlyWipeOutlines,1
;   avoidCrossingOutline,0
;   maxMovementDetourFactor,3
;   toolChangeRetractionDistance,12
;   toolChangeExtraRestartDistance,-0.5
;   toolChangeRetractionSpeed,600
;   externalThinWallType,0
;   internalThinWallType,2
;   thinWallAllowedOverlapPercentage,10
;   singleExtrusionMinLength,1
;   singleExtrusionMinPrintingWidthPercentage,50
;   singleExtrusionMaxPrintingWidthPercentage,200
;   singleExtrusionEndpointExtension,0.2
;   horizontalSizeCompensation,0
G90
M82
M106 S0
M140 S80
M190 S80
M104 S208 T0
M109 S208 T0
G28 ; home all axes
; process PLA
; layer 1, Z = 0.135
T0
G92 E0.0000
G1 E-12.0000 F7200
; feature skirt
; tool H0.135 W0.456
G1 Z1.000 F18000
G1 X-0.000 Y-93.161 F24000
G1 Z0.135 F18000
G1 E0.0000 F7200
G92 E0.0000
G1 X0.517 Y-93.678 E0.0187 F2700
G1 X42.483 Y-93.678 E1.0928
G1 X45.288 Y-90.873 E1.1943
G1 X45.288 Y90.873 E5.8459
G1 X42.483 Y93.678 E5.9474
G1 X0.517 Y93.678 E7.0215
G1 X-0.000 Y93.161 E7.0402
G1 X-0.517 Y93.678 E7.0589
G1 X-42.483 Y93.678 E8.1329
G1 X-45.288 Y90.873 E8.2345
G1 X-45.288 Y-90.873 E12.8860
G1 X-42.483 Y-93.678 E12.9875
G1 X-0.517 Y-93.678 E14.0616
G1 X-0.000 Y-93.161 E14.0803
G92 E0.0000
G1 E-12.0000 F7200
G1 Z1.135 F18000
G1 X-0.000 Y92.516 F24000
G1 Z0.135 F18000
G1 E0.0000 F7200
G92 E0.0000
G1 X-0.706 Y93.222 E0.0255 F2700
G1 X-42.294 Y93.222 E1.0899
G1 X-44.832 Y90.684 E1.1818
G1 X-44.832 Y-90.684 E5.8237
G1 X-42.294 Y-93.222 E5.9155
G1 X-0.706 Y-93.222 E6.9800
G1 X-0.000 Y-92.516 E7.0055
G1 X0.706 Y-93.222 E7.0310
G1 X42.294 Y-93.222 E8.0954
G1 X44.832 Y-90.684 E8.1873
G1 X44.832 Y90.684 E12.8292
G1 X42.294 Y93.222 E12.9210
G1 X0.706 Y93.222 E13.9854
G1 X-0.000 Y92.516 E14.0110
G92 E0.0000
G1 E-12.0000 F7200
G1 Z1.135 F18000
G1 X42.106 Y-92.766 F24000
G1 Z0.135 F18000
G1 E0.0000 F7200
G92 E0.0000
G1 X44.376 Y-90.496 E0.0822 F2700
G1 X44.376 Y90.496 E4.7144
G1 X42.106 Y92.766 E4.7966
G1 X0.895 Y92.766 E5.8513
G1 X0.000 Y91.872 E5.8837
G1 X-0.895 Y92.766 E5.9161
G1 X-42.106 Y92.766 E6.9708
G1 X-44.376 Y90.496 E7.0530
G1 X-44.376 Y-90.496 E11.6852
G1 X-42.106 Y-92.766 E11.7674
G1 X-0.895 Y-92.766 E12.8222
G1 X-0.000 Y-91.872 E12.8545
G1 X0.895 Y-92.766 E12.8869
G1 X42.106 Y-92.766 E13.9417
G92 E0.0000
G1 E-12.0000 F7200
G1 Z1.135 F18000
G1 X-43.920 Y-90.307 F24000
G1 Z0.135 F18000
G1 E0.0000 F7200
G92 E0.0000
G1 X-41.917 Y-92.310 E0.0725 F2700
G1 X-1.083 Y-92.310 E1.1176
G1 X0.000 Y-91.227 E1.1568
G1 X1.083 Y-92.310 E1.1960
G1 X41.917 Y-92.310 E2.2411
G1 X43.920 Y-90.307 E2.3136
G1 X43.920 Y90.307 E6.9362
G1 X41.917 Y92.310 E7.0087
G1 X1.083 Y92.310 E8.0537
G1 X0.000 Y91.227 E8.0930
G1 X-1.083 Y92.310 E8.1322
G1 X-41.917 Y92.310 E9.1772
G1 X-43.920 Y90.307 E9.2498
G1 X-43.920 Y-90.307 E13.8723
G92 E0.0000
G1 E-12.0000 F7200
G1 Z1.135 F18000
G1 X-1.272 Y91.854 F24000
G1 Z0.135 F18000
G1 E0.0000 F7200
G92 E0.0000
G1 X-41.728 Y91.854 E1.0354 F2700
G1 X-43.464 Y90.118 E1.0982
G1 X-43.464 Y-90.118 E5.7111
G1 X-41.728 Y-91.854 E5.7740
G1 X-1.272 Y-91.854 E6.8094
G1 X0.000 Y-90.582 E6.8554
G1 X1.272 Y-91.854 E6.9015
G1 X41.728 Y-91.854 E7.9369
G1 X43.464 Y-90.118 E7.9997
G1 X43.464 Y90.118 E12.6126
G1 X41.728 Y91.854 E12.6755
G1 X1.272 Y91.854 E13.7109
G1 X0.000 Y90.582 E13.7569
G1 X-1.272 Y91.854 E13.8030
G92 E0.0000
G1 E-12.0000 F7200
G1 Z1.135 F18000
G1 X1.461 Y91.398 F24000
G1 Z0.135 F18000
G1 E0.0000 F7200
G92 E0.0000
G1 X0.000 Y89.937 E0.0529 F2700
G1 X-1.461 Y91.398 E0.1058
G1 X-41.539 Y91.398 E1.1315
G1 X-43.008 Y89.929 E1.1847
G1 X-43.008 Y-89.929 E5.7879
G1 X-41.539 Y-91.398 E5.8411
G1 X-1.461 Y-91.398 E6.8668
G1 X0.000 Y-89.937 E6.9197
G1 X1.461 Y-91.398 E6.9726
G1 X41.539 Y-91.398 E7.9983
G1 X43.008 Y-89.929 E8.0515
G1 X43.008 Y89.929 E12.6547
G1 X41.539 Y91.398 E12.7079
G1 X1.461 Y91.398 E13.7336
G92 E0.0000
G1 E-12.0000 F7200
G1 Z1.135 F18000
G1 X41.350 Y90.942 F24000
G1 Z0.135 F18000
G1 E0.0000 F7200
G92 E0.0000
G1 X1.650 Y90.942 E1.0161 F2700
G1 X0.448 Y89.740 E1.0596
G1 X0.448 Y-89.740 E5.6531
G1 X1.650 Y-90.942 E5.6966
G1 X41.350 Y-90.942 E6.7127
G1 X42.552 Y-89.740 E6.7562
G1 X42.552 Y89.740 E11.3498
G1 X41.350 Y90.942 E11.3933
G92 E0.0000
G1 E-12.0000 F7200
G1 Z1.135 F18000
G1 X41.161 Y-90.486 F24000
G1 Z0.135 F18000
G1 E0.0000 F7200
G92 E0.0000
G1 X42.096 Y-89.551 E0.0338 F2700
G1 X42.096 Y89.551 E4.6177
G1 X41.161 Y90.486 E4.6516
G1 X1.839 Y90.486 E5.6580
G1 X0.904 Y89.551 E5.6918
G1 X0.904 Y-89.551 E10.2757
G1 X1.839 Y-90.486 E10.3095
G1 X41.161 Y-90.486 E11.3159
G92 E0.0000
G1 E-12.0000 F7200
G1 Z1.135 F18000
G1 X2.028 Y-90.030 F24000
G1 Z0.135 F18000
G1 E0.0000 F7200
G92 E0.0000
G1 X40.972 Y-90.030 E0.9967 F2700
G1 X41.640 Y-89.362 E1.0209
G1 X41.640 Y89.362 E5.5951
G1 X40.972 Y90.030 E5.6193
G1 X2.028 Y90.030 E6.6160
G1 X1.360 Y89.362 E6.6402
G1 X1.360 Y-89.362 E11.2144
G1 X2.028 Y-90.030 E11.2386
G92 E0.0000
G1 E-12.0000 F7200
G1 Z1.135 F18000
G1 X1.816 Y-89.173 F24000
G1 Z0.135 F18000
G1 E0.0000 F7200
G92 E0.0000
G1 X2.217 Y-89.574 E0.0145 F2700
G1 X40.783 Y-89.574 E1.0016
G1 X41.184 Y-89.173 E1.0161
G1 X41.184 Y89.173 E5.5806
G1 X40.783 Y89.574 E5.5951
G1 X2.217 Y89.574 E6.5822
G1 X1.816 Y89.173 E6.5967
G1 X1.816 Y-89.173 E11.1612
G92 E0.0000
G1 E-12.0000 F7200
G1 Z1.135 F18000
G1 X40.728 Y88.985 F24000
G1 Z0.135 F18000
G1 E0.0000 F7200
G92 E0.0000
G1 X40.594 Y89.118 E0.0048 F2700
G1 X2.406 Y89.118 E0.9822
G1 X2.272 Y88.985 E0.9871
G1 X2.272 Y-88.985 E5.5419
G1 X2.406 Y-89.118 E5.5468
G1 X40.594 Y-89.118 E6.5242
G1 X40.728 Y-88.985 E6.5290
G1 X40.728 Y88.985 E11.0839
G92 E0.0000
G1 E-12.0000 F7200
G1 Z1.135 F18000
G1 X-41.350 Y-90.942 F24000
G1 Z0.135 F18000
G1 E0.0000 F7200
G92 E0.0000
G1 X-1.650 Y-90.942 E1.0161 F2700
G1 X-0.448 Y-89.740 E1.0596
G1 X-0.448 Y89.740 E5.6531
G1 X-1.650 Y90.942 E5.6966
G1 X-41.350 Y90.942 E6.7127
G1 X-42.552 Y89.740 E6.7562
G1 X-42.552 Y-89.740 E11.3498
G1 X-41.350 Y-90.942 E11.3933
G92 E0.0000
G1 E-12.0000 F7200
G1 Z1.135 F18000
G1 X-42.096 Y-89.551 F24000
G1 Z0.135 F18000
G1 E0.0000 F7200
G92 E0.0000
G1 X-41.161 Y-90.486 E0.0338 F2700
G1 X-1.839 Y-90.486 E1.0402
G1 X-0.904 Y-89.551 E1.0741
G1 X-0.904 Y89.551 E5.6580
G1 X-1.839 Y90.486 E5.6918
G1 X-41.161 Y90.486 E6.6982
G1 X-42.096 Y89.551 E6.7320
G1 X-42.096 Y-89.551 E11.3159
G92 E0.0000
G1 E-12.0000 F7200
G1 Z1.135 F18000
G1 X-41.640 Y89.362 F24000
G1 Z0.135 F18000
G1 E0.0000 F7200
G92 E0.0000
G1 X-41.640 Y-89.362 E4.5742 F2700
G1 X-40.972 Y-90.030 E4.5984
G1 X-2.028 Y-90.030 E5.5951
G1 X-1.360 Y-89.362 E5.6193
G1 X-1.360 Y89.362 E10.1935
G1 X-2.028 Y90.030 E10.2177
G1 X-40.972 Y90.030 E11.2144
G1 X-41.640 Y89.362 E11.2386
G92 E0.0000
G1 E-12.0000 F7200
G1 Z1.135 F18000
G1 X-2.217 Y89.574 F24000
G1 Z0.135 F18000
G1 E0.0000 F7200
G92 E0.0000
G1 X-40.783 Y89.574 E0.9871 F2700
G1 X-41.184 Y89.173 E1.0016
G1 X-41.184 Y-89.173 E5.5661
G1 X-40.783 Y-89.574 E5.5806
G1 X-2.217 Y-89.574 E6.5677
G1 X-1.816 Y-89.173 E6.5822
G1 X-1.816 Y89.173 E11.1467
G1 X-2.217 Y89.574 E11.1612
G92 E0.0000
G1 E-12.0000 F7200
G1 Z1.135 F18000
G1 X-2.272 Y-88.985 F24000
G1 Z0.135 F18000
G1 E0.0000 F7200
G92 E0.0000
G1 X-2.272 Y88.985 E4.5549 F2700
G1 X-2.406 Y89.118 E4.5597
G1 X-40.594 Y89.118 E5.5371
G1 X-40.728 Y88.985 E5.5419
G1 X-40.728 Y-88.985 E10.0968
G1 X-40.594 Y-89.118 E10.1017
G1 X-2.406 Y-89.118 E11.0791
G1 X-2.272 Y-88.985 E11.0839
G92 E0.0000
G1 E-12.0000 F7200
; feature inner perimeter
G1 Z1.135 F18000
G1 X4.964 Y-76.726 F24000
G1 Z0.135 F18000
G1 E0.0000 F7200
G92 E0.0000
G1 X5.426 Y-76.447 E0.0138 F1890
G1 X6.101 Y-76.167 E0.0325
G1 X6.846 Y-76.007 E0.0520
G1 X7.608 Y-75.984 E0.0715
G1 X8.361 Y-76.099 E0.0910
G1 X9.082 Y-76.347 E0.1105
G1 X9.718 Y-76.707 E0.1292
G1 X10.142 Y-77.039 E0.1430
G1 X10.524 Y-77.420 E0.1568
G1 X10.957 Y-78.009 E0.1755
G1 X11.277 Y-78.666 E0.1942
G1 X11.437 Y-79.180 E0.2080
G1 X11.534 Y-79.711 E0.2218
G1 X11.556 Y-80.441 E0.2405
G1 X11.446 Y-81.164 E0.2592
G1 X11.286 Y-81.678 E0.2730
G1 X11.065 Y-82.170 E0.2868
G1 X10.668 Y-82.784 E0.3055
G1 X10.146 Y-83.338 E0.3250
G1 X9.531 Y-83.791 E0.3445
G1 X8.872 Y-84.111 E0.3633
G1 X8.360 Y-84.271 E0.3770
G1 X7.830 Y-84.368 E0.3908
G1 X7.099 Y-84.390 E0.4096
G1 X6.374 Y-84.279 E0.4283
G1 X5.862 Y-84.119 E0.4420
G1 X5.371 Y-83.898 E0.4558
G1 X4.552 Y-83.369 E0.4808
G1 X4.552 Y-86.461 E0.5599
G1 X38.448 Y-86.461 E1.4275
G1 X38.448 Y86.461 E5.8532
G1 X4.552 Y86.461 E6.7207
G1 X4.552 Y-77.049 E10.9055
G1 X4.964 Y-76.726 E10.9189
G1 X5.224 Y-77.102 F24000
G92 E0.0000
G1 X5.632 Y-76.855 E0.0122 F1890
G1 X6.237 Y-76.604 E0.0290
G1 X6.901 Y-76.462 E0.0464
G1 X7.580 Y-76.441 E0.0637
G1 X8.252 Y-76.543 E0.0811
G1 X8.894 Y-76.765 E0.0985
G1 X9.464 Y-77.087 E0.1153
G1 X9.839 Y-77.381 E0.1275
G1 X10.177 Y-77.718 E0.1397
G1 X10.565 Y-78.246 E0.1564
G1 X10.852 Y-78.835 E0.1732
G1 X10.993 Y-79.290 E0.1854
G1 X11.079 Y-79.759 E0.1976
G1 X11.099 Y-80.414 E0.2144
G1 X11.001 Y-81.061 E0.2311
G1 X10.859 Y-81.516 E0.2433
G1 X10.663 Y-81.951 E0.2556
G1 X10.307 Y-82.501 E0.2723
G1 X9.842 Y-82.996 E0.2897
G1 X9.295 Y-83.399 E0.3071
G1 X8.704 Y-83.686 E0.3239
G1 X8.251 Y-83.827 E0.3361
G1 X7.782 Y-83.913 E0.3483
G1 X7.127 Y-83.933 E0.3650
G1 X6.477 Y-83.834 E0.3818
G1 X6.024 Y-83.692 E0.3940
G1 X5.589 Y-83.497 E0.4062
G1 X5.039 Y-83.141 E0.4230
G1 X4.545 Y-82.675 E0.4403
G1 X4.378 Y-82.449 E0.4475
G1 X4.096 Y-82.542 E0.4551
G1 X4.096 Y-86.917 E0.5671
G1 X38.904 Y-86.917 E1.4580
G1 X38.904 Y86.917 E5.9070
G1 X4.096 Y86.917 E6.7979
G1 X4.096 Y-78.195 E11.0237
G1 X4.848 Y-77.396 E11.0518
G1 X5.224 Y-77.102 E11.0640
G1 X3.640 Y-87.373 F24000
G92 E0.0000
G1 X39.360 Y-87.373 E0.9142 F1890
G1 X39.360 Y87.373 E5.3866
G1 X3.640 Y87.373 E6.3008
G1 X3.640 Y-87.373 E10.7732
G1 X3.184 Y-87.829 F24000
G92 E0.0000
G1 X39.816 Y-87.829 E0.9375 F1890
G1 X39.816 Y87.829 E5.4333
G1 X3.184 Y87.829 E6.3709
G1 X3.184 Y-87.829 E10.8666
; feature outer perimeter
G1 X2.728 Y-88.285 F24000
G92 E0.0000
G1 X40.272 Y-88.285 E0.9609 F1080
G1 X40.272 Y88.285 E5.4800
G1 X2.728 Y88.285 E6.4409
G1 X2.728 Y-88.285 E10.9600
G1 X7.728 Y-88.285 F1080
; feature inner perimeter
G1 X7.733 Y-83.458 F24000
G92 E0.0000
G1 X7.154 Y-83.476 E0.0148 F1890
G1 X6.580 Y-83.388 E0.0297
G1 X6.186 Y-83.265 E0.0403
G1 X5.808 Y-83.095 E0.0509
G1 X5.322 Y-82.780 E0.0657
G1 X4.887 Y-82.372 E0.0810
G1 X4.534 Y-81.891 E0.0962
G1 X4.273 Y-81.355 E0.1115
G1 X4.113 Y-80.781 E0.1267
G1 X4.059 Y-80.185 E0.1421
G1 X4.111 Y-79.610 E0.1568
G1 X4.215 Y-79.191 E0.1679
G1 X4.436 Y-78.656 E0.1827
G1 X4.760 Y-78.155 E0.1980
G1 X5.157 Y-77.734 E0.2128
G1 X5.483 Y-77.478 E0.2234
G1 X5.838 Y-77.263 E0.2340
G1 X6.373 Y-77.041 E0.2488
G1 X6.956 Y-76.916 E0.2641
G1 X7.552 Y-76.898 E0.2794
G1 X8.142 Y-76.988 E0.2946
G1 X8.706 Y-77.183 E0.3099
G1 X9.210 Y-77.467 E0.3247
G1 X9.537 Y-77.723 E0.3353
G1 X9.830 Y-78.016 E0.3459
G1 X10.173 Y-78.483 E0.3608
G1 X10.427 Y-79.003 E0.3756
G1 X10.550 Y-79.399 E0.3862
G1 X10.625 Y-79.807 E0.3968
G1 X10.642 Y-80.386 E0.4116
G1 X10.555 Y-80.958 E0.4264
G1 X10.432 Y-81.354 E0.4371
G1 X10.261 Y-81.733 E0.4477
G1 X9.947 Y-82.219 E0.4625
G1 X9.538 Y-82.653 E0.4778
G1 X9.058 Y-83.007 E0.4930
G1 X8.535 Y-83.261 E0.5079
G1 X8.141 Y-83.383 E0.5185
