; G-Code generated by Simplify3D(R) Version 4.1.2
; May 7, 2021 at 8:41:44 AM
; Settings Summary
;   processName,PLA
;   applyToModels,EHA_Small_Wall_mirror,EHA_Small_Wall
;   profileName,Rostock MAX v3(2) (modified)
;   profileVersion,2019-01-13 09:20:56
;   baseProfile,
;   printMaterial,PLA
;   printQuality,Medium
;   printExtruders,
;   extruderName,Primary Extruder
;   extruderToolheadNumber,0
;   extruderDiameter,0.38
;   extruderAutoWidth,1
;   extruderWidth,0.46
;   extrusionMultiplier,1
;   extruderUseRetract,1
;   extruderRetractionDistance,12
;   extruderExtraRestartDistance,0
;   extruderRetractionZLift,1
;   extruderRetractionSpeed,7200
;   extruderUseCoasting,0
;   extruderCoastingDistance,1
;   extruderUseWipe,1
;   extruderWipeDistance,5
;   primaryExtruder,0
;   layerHeight,0.15
;   topSolidLayers,11
;   bottomSolidLayers,7
;   perimeterOutlines,5
;   printPerimetersInsideOut,1
;   startPointOption,1
;   startPointOriginX,0
;   startPointOriginY,0
;   sequentialIslands,0
;   spiralVaseMode,0
;   firstLayerHeightPercentage,90
;   firstLayerWidthPercentage,100
;   firstLayerUnderspeed,0.5
;   useRaft,0
;   raftExtruder,0
;   raftTopLayers,1
;   raftBaseLayers,1
;   raftOffset,0
;   raftSeparationDistance,0.14
;   raftTopInfill,100
;   aboveRaftSpeedMultiplier,0.3
;   useSkirt,1
;   skirtExtruder,0
;   skirtLayers,2
;   skirtOutlines,11
;   skirtOffset,0
;   usePrimePillar,0
;   primePillarExtruder,999
;   primePillarWidth,12
;   primePillarLocation,7
;   primePillarSpeedMultiplier,1
;   useOozeShield,0
;   oozeShieldExtruder,999
;   oozeShieldOffset,2
;   oozeShieldOutlines,1
;   oozeShieldSidewallShape,0
;   oozeShieldSidewallAngle,30
;   oozeShieldSpeedMultiplier,1
;   infillExtruder,0
;   internalInfillPattern,Triangular
;   externalInfillPattern,Rectilinear
;   infillPercentage,50
;   outlineOverlapPercentage,25
;   infillExtrusionWidthPercentage,120
;   minInfillLength,5
;   infillLayerInterval,1
;   internalInfillAngles,0,60,-60
;   overlapInternalInfillAngles,1
;   externalInfillAngles,45,-45
;   generateSupport,1
;   supportExtruder,0
;   supportInfillPercentage,40
;   supportExtraInflation,0
;   supportBaseLayers,2
;   denseSupportExtruder,0
;   denseSupportLayers,0
;   denseSupportInfillPercentage,70
;   supportLayerInterval,1
;   supportHorizontalPartOffset,0.3
;   supportUpperSeparationLayers,1
;   supportLowerSeparationLayers,1
;   supportType,0
;   supportGridSpacing,2
;   maxOverhangAngle,45
;   supportAngles,0
;   temperatureName,Primary Extruder,Heated Bed
;   temperatureNumber,0,1
;   temperatureSetpointCount,1,1
;   temperatureSetpointLayers,1,1
;   temperatureSetpointTemperatures,208,80
;   temperatureStabilizeAtStartup,1,1
;   temperatureHeatedBed,0,1
;   fanLayers,1
;   fanSpeeds,0
;   blipFanToFullPower,1
;   adjustSpeedForCooling,1
;   minSpeedLayerTime,15
;   minCoolingSpeedSlowdown,20
;   increaseFanForCooling,0
;   minFanLayerTime,60
;   maxCoolingFanSpeed,100
;   increaseFanForBridging,1
;   bridgingFanSpeed,100
;   use5D,1
;   relativeEdistances,0
;   allowEaxisZeroing,1
;   independentExtruderAxes,0
;   includeM10123,0
;   stickySupport,1
;   applyToolheadOffsets,0
;   gcodeXoffset,0
;   gcodeYoffset,0
;   gcodeZoffset,0
;   overrideMachineDefinition,1
;   machineTypeOverride,1
;   strokeXoverride,197
;   strokeYoverride,197
;   strokeZoverride,397
;   originOffsetXoverride,98.5
;   originOffsetYoverride,98.5
;   originOffsetZoverride,0
;   homeXdirOverride,0
;   homeYdirOverride,0
;   homeZdirOverride,1
;   flipXoverride,1
;   flipYoverride,-1
;   flipZoverride,1
;   toolheadOffsets,0,0|0,0|0,0|0,0|0,0|0,0
;   overrideFirmwareConfiguration,1
;   firmwareTypeOverride,RepRap (Marlin/Repetier/Sprinter)
;   GPXconfigOverride,r2
;   baudRateOverride,250000
;   overridePrinterModels,1
;   printerModelsOverride
;   startingGcode,G28 ; home all axes
;   layerChangeGcode,
;   retractionGcode,
;   toolChangeGcode,
;   endingGcode,M106 S0 ; turn off cooling fan,M104 S0 ; turn off extruder,M140 S0 ; turn off bed,G28 ; home axes,M84 ; disable motors
;   exportFileFormat,gcode
;   celebration,0
;   celebrationSong,Random Song
;   postProcessing,
;   defaultSpeed,5400
;   outlineUnderspeed,0.4
;   solidInfillUnderspeed,0.75
;   supportUnderspeed,0.8
;   rapidXYspeed,24000
;   rapidZspeed,18000
;   minBridgingArea,50
;   bridgingExtraInflation,0
;   bridgingExtrusionMultiplier,0.95
;   bridgingSpeedMultiplier,0.7
;   useFixedBridgingAngle,0
;   fixedBridgingAngle,0
;   applyBridgingToPerimeters,0
;   filamentDiameters,1.75|1.75|1.75|1.75|1.75|1.75
;   filamentPricesPerKg,35|46|46|46|46|46
;   filamentDensities,1.25|1.25|1.25|1.25|1.25|1.25
;   useMinPrintHeight,0
;   minPrintHeight,0.6
;   useMaxPrintHeight,0
;   maxPrintHeight,0
;   useDiaphragm,1
;   diaphragmLayerInterval,20
;   robustSlicing,1
;   mergeAllIntoSolid,0
;   onlyRetractWhenCrossingOutline,1
;   retractBetweenLayers,1
;   useRetractionMinTravel,0
;   retractionMinTravel,3
;   retractWhileWiping,0
;   onlyWipeOutlines,1
;   avoidCrossingOutline,0
;   maxMovementDetourFactor,3
;   toolChangeRetractionDistance,12
;   toolChangeExtraRestartDistance,-0.5
;   toolChangeRetractionSpeed,600
;   externalThinWallType,0
;   internalThinWallType,2
;   thinWallAllowedOverlapPercentage,10
;   singleExtrusionMinLength,1
;   singleExtrusionMinPrintingWidthPercentage,50
;   singleExtrusionMaxPrintingWidthPercentage,200
;   singleExtrusionEndpointExtension,0.2
;   horizontalSizeCompensation,0
G90
M82
M106 S0
M140 S80
M190 S80
M104 S208 T0
M109 S208 T0
G28 ; home all axes
; process PLA
; layer 1, Z = 0.135
T0
G92 E0.0000
G1 E-12.0000 F7200
; feature skirt
; tool H0.135 W0.456
G1 Z1.000 F18000
G1 X-0.659 Y-52.477 F24000
G1 Z0.135 F18000
G1 E0.0000 F7200
G92 E0.0000
G1 X0.339 Y-51.431 E0.0370 F2700
G1 X1.780 Y-52.907 E0.0898
G1 X42.232 Y-53.409 E1.1252
G1 X43.990 Y-51.694 E1.1881
G1 X45.260 Y50.753 E3.8103
G1 X43.545 Y52.511 E3.8731
G1 X3.093 Y53.012 E4.9085
G1 X1.335 Y51.298 E4.9714
G1 X0.405 Y-23.708 E6.8912
G1 X-1.357 Y51.727 E8.8224
G1 X-3.133 Y53.422 E8.8852
G1 X-43.578 Y52.477 E9.9206
G1 X-45.273 Y50.701 E9.9835
G1 X-42.880 Y-51.727 E12.6057
G1 X-41.104 Y-53.422 E12.6685
G1 X-0.659 Y-52.477 E13.7039
G92 E0.0000
G1 E-12.0000 F7200
G1 Z1.135 F18000
G1 X-43.179 Y51.574 F24000
G1 Z0.135 F18000
G1 E0.0000 F7200
G92 E0.0000
G1 X-44.352 Y50.344 E0.0435 F2700
G1 X-41.977 Y-51.328 E2.6464
G1 X-40.747 Y-52.501 E2.6899
G1 X-1.058 Y-51.574 E3.7060
G1 X0.115 Y-50.344 E3.7495
G1 X-2.260 Y51.328 E6.3523
G1 X-3.490 Y52.501 E6.3958
G1 X-43.179 Y51.574 E7.4119
G92 E0.0000
G1 E-12.0000 F7200
G1 Z1.135 F18000
G1 X-0.345 Y-50.166 F24000
G1 Z0.135 F18000
G1 E0.0000 F7200
G92 E0.0000
G1 X-2.711 Y51.128 E2.5932 F2700
G1 X-3.668 Y52.041 E2.6270
G1 X-42.979 Y51.123 E3.6334
G1 X-43.892 Y50.166 E3.6673
G1 X-41.526 Y-51.128 E6.2605
G1 X-40.569 Y-52.041 E6.2943
G1 X-1.258 Y-51.123 E7.3007
G1 X-0.345 Y-50.166 E7.3346
G92 E0.0000
G1 E-12.0000 F7200
G1 Z1.135 F18000
G1 X-41.074 Y-50.929 F24000
G1 Z0.135 F18000
G1 E0.0000 F7200
G92 E0.0000
G1 X-40.391 Y-51.581 E0.0242 F2700
G1 X-1.457 Y-50.671 E1.0209
G1 X-0.805 Y-49.988 E1.0451
G1 X-3.163 Y50.929 E3.6286
G1 X-3.846 Y51.581 E3.6528
G1 X-42.780 Y50.671 E4.6495
G1 X-43.432 Y49.988 E4.6737
G1 X-41.074 Y-50.929 E7.2572
G92 E0.0000
G1 E-12.0000 F7200
G1 Z1.135 F18000
G1 X-42.580 Y50.220 F24000
G1 Z0.135 F18000
G1 E0.0000 F7200
G92 E0.0000
G1 X-42.972 Y49.810 E0.0145 F2700
G1 X-40.623 Y-50.729 E2.5884
G1 X-40.213 Y-51.121 E2.6029
G1 X-1.657 Y-50.220 E3.5899
G1 X-1.265 Y-49.810 E3.6044
G1 X-3.614 Y50.729 E6.1783
G1 X-4.024 Y51.121 E6.1928
G1 X-42.580 Y50.220 E7.1799
G92 E0.0000
G1 E-12.0000 F7200
G1 Z1.135 F18000
G1 X-4.202 Y50.660 F24000
G1 Z0.135 F18000
G1 E0.0000 F7200
G92 E0.0000
G1 X-42.381 Y49.768 E0.9774 F2700
G1 X-42.511 Y49.632 E0.9822
G1 X-40.171 Y-50.530 E3.5464
G1 X-40.035 Y-50.660 E3.5513
G1 X-1.856 Y-49.768 E4.5287
G1 X-1.726 Y-49.632 E4.5335
G1 X-4.066 Y50.530 E7.0977
G1 X-4.202 Y50.660 E7.1025
G92 E0.0000
G1 E-12.0000 F7200
G1 Z1.135 F18000
G1 X45.804 Y-52.472 F24000
G1 Z0.135 F18000
G1 E0.0000 F7200
G92 E0.0000
G1 X47.093 Y51.486 E2.6609 F2700
G1 X44.324 Y54.325 E2.7624
G1 X2.360 Y54.846 E3.8365
G1 X0.212 Y52.750 E3.9133
G1 X-2.421 Y55.263 E4.0064
G1 X-44.376 Y54.283 E5.0805
G1 X-47.114 Y51.413 E5.1820
G1 X-44.686 Y-52.525 E7.8429
G1 X-41.816 Y-55.263 E7.9444
G1 X0.139 Y-54.283 E9.0185
G1 X0.354 Y-54.058 E9.0265
G1 X1.002 Y-54.722 E9.0502
G1 X42.965 Y-55.242 E10.1243
G1 X45.804 Y-52.472 E10.2258
G92 E0.0000
G1 E-12.0000 F7200
G1 Z1.135 F18000
G1 X-44.234 Y-52.325 F24000
G1 Z0.135 F18000
G1 E0.0000 F7200
G92 E0.0000
G1 X-41.638 Y-54.803 E0.0918 F2700
G1 X-0.061 Y-53.831 E1.1563
G1 X0.350 Y-53.401 E1.1715
G1 X1.196 Y-54.268 E1.2025
G1 X42.782 Y-54.784 E2.2669
G1 X45.351 Y-52.278 E2.3588
G1 X46.635 Y51.303 E5.0100
G1 X44.129 Y53.872 E5.1018
G1 X2.544 Y54.387 E6.1662
G1 X0.007 Y51.913 E6.2569
G1 X-0.003 Y52.325 E6.2675
G1 X-2.599 Y54.803 E6.3593
G1 X-44.176 Y53.831 E7.4237
G1 X-46.654 Y51.235 E7.5156
G1 X-44.234 Y-52.325 E10.1668
G92 E0.0000
G1 E-12.0000 F7200
G1 Z1.135 F18000
G1 X-46.194 Y51.057 F24000
G1 Z0.135 F18000
G1 E0.0000 F7200
G92 E0.0000
G1 X-43.783 Y-52.126 E2.6415 F2700
G1 X-41.460 Y-54.343 E2.7237
G1 X-0.260 Y-53.380 E3.7785
G1 X0.346 Y-52.744 E3.8010
G1 X1.391 Y-53.815 E3.8392
G1 X42.599 Y-54.326 E4.8940
G1 X44.897 Y-52.083 E4.9762
G1 X46.177 Y51.119 E7.6177
G1 X43.935 Y53.418 E7.6999
G1 X2.727 Y53.929 E8.7546
G1 X0.428 Y51.687 E8.8368
G1 X0.126 Y27.302 E9.4609
G1 X-0.454 Y52.126 E10.0964
G1 X-2.777 Y54.343 E10.1786
G1 X-43.977 Y53.380 E11.2334
G1 X-46.194 Y51.057 E11.3155
G92 E0.0000
G1 E-12.0000 F7200
G1 Z1.135 F18000
G1 X-2.955 Y53.882 F24000
G1 Z0.135 F18000
G1 E0.0000 F7200
G92 E0.0000
G1 X-43.777 Y52.929 E1.0451 F2700
G1 X-45.733 Y50.879 E1.1176
G1 X-43.331 Y-51.926 E3.7495
G1 X-41.282 Y-53.882 E3.8220
G1 X-0.460 Y-52.929 E4.8670
G1 X0.343 Y-52.088 E4.8968
G1 X1.585 Y-53.361 E4.9423
G1 X42.415 Y-53.867 E5.9874
G1 X44.443 Y-51.889 E6.0599
G1 X45.718 Y50.936 E8.6918
G1 X43.740 Y52.964 E8.7643
G1 X2.910 Y53.471 E9.8094
G1 X0.882 Y51.492 E9.8819
G1 X0.266 Y1.797 E11.1539
G1 X-0.906 Y51.926 E12.4372
G1 X-2.955 Y53.882 E12.5097
G92 E0.0000
G1 E-12.0000 F7200
G1 Z1.135 F18000
G1 X0.523 Y-50.967 F24000
G1 Z0.135 F18000
G1 E0.0000 F7200
G92 E0.0000
G1 X1.974 Y-52.454 E0.0532 F2700
G1 X42.049 Y-52.951 E1.0789
G1 X43.536 Y-51.500 E1.1321
G1 X44.802 Y50.570 E3.7446
G1 X43.351 Y52.057 E3.7978
G1 X3.276 Y52.554 E4.8235
G1 X1.789 Y51.103 E4.8767
G1 X0.545 Y-49.214 E7.4444
G1 X-1.808 Y51.527 E10.0234
G1 X-3.311 Y52.962 E10.0766
G1 X-43.378 Y52.026 E11.1023
G1 X-44.813 Y50.523 E11.1555
G1 X-42.429 Y-51.527 E13.7681
G1 X-40.925 Y-52.962 E13.8212
G1 X-0.859 Y-52.026 E14.8470
G1 X0.528 Y-50.572 E14.8984
G1 X0.523 Y-50.967 E14.9085
G92 E0.0000
G1 E-12.0000 F7200
G1 Z1.135 F18000
G1 X2.169 Y-52.000 F24000
G1 Z0.135 F18000
G1 E0.0000 F7200
G92 E0.0000
G1 X41.866 Y-52.493 E1.0161 F2700
G1 X43.082 Y-51.305 E1.0596
G1 X44.343 Y50.387 E3.6624
G1 X43.156 Y51.603 E3.7060
G1 X3.460 Y52.096 E4.7220
G1 X2.243 Y50.909 E4.7655
G1 X0.982 Y-50.783 E7.3684
G1 X2.169 Y-52.000 E7.4119
G92 E0.0000
G1 E-12.0000 F7200
G1 Z1.135 F18000
G1 X1.440 Y-50.600 F24000
G1 Z0.135 F18000
G1 E0.0000 F7200
G92 E0.0000
G1 X2.363 Y-51.547 E0.0338 F2700
G1 X41.682 Y-52.034 E1.0402
G1 X42.629 Y-51.111 E1.0741
G1 X43.885 Y50.203 E3.6673
G1 X42.962 Y51.150 E3.7011
G1 X3.643 Y51.637 E4.7075
G1 X2.696 Y50.714 E4.7414
G1 X1.440 Y-50.600 E7.3346
G92 E0.0000
G1 E-12.0000 F7200
G1 Z1.135 F18000
G1 X3.150 Y50.520 F24000
G1 Z0.135 F18000
G1 E0.0000 F7200
G92 E0.0000
G1 X1.898 Y-50.417 E2.5835 F2700
G1 X2.558 Y-51.093 E2.6077
G1 X41.499 Y-51.576 E3.6044
G1 X42.175 Y-50.916 E3.6286
G1 X43.427 Y50.020 E6.2121
G1 X42.767 Y50.696 E6.2363
G1 X3.826 Y51.179 E7.2330
G1 X3.150 Y50.520 E7.2572
G92 E0.0000
G1 E-12.0000 F7200
G1 Z1.135 F18000
G1 X42.573 Y50.243 F24000
G1 Z0.135 F18000
G1 E0.0000 F7200
G92 E0.0000
G1 X4.009 Y50.721 E0.9871 F2700
G1 X3.604 Y50.325 E1.0016
G1 X2.357 Y-50.234 E3.5754
G1 X2.752 Y-50.639 E3.5899
G1 X41.316 Y-51.118 E4.5770
G1 X41.722 Y-50.722 E4.5915
G1 X42.969 Y49.837 E7.1654
G1 X42.573 Y50.243 E7.1799
G92 E0.0000
G1 E-12.0000 F7200
G1 Z1.135 F18000
G1 X41.268 Y-50.527 F24000
G1 Z0.135 F18000
G1 E0.0000 F7200
G92 E0.0000
G1 X42.510 Y49.654 E2.5642 F2700
G1 X42.378 Y49.789 E2.5690
G1 X4.192 Y50.262 E3.5464
G1 X4.057 Y50.131 E3.5513
G1 X2.815 Y-50.051 E6.1155
G1 X2.947 Y-50.186 E6.1203
G1 X41.133 Y-50.659 E7.0977
G1 X41.268 Y-50.527 E7.1025
G92 E0.0000
G1 E-12.0000 F7200
; feature inner perimeter
G1 Z1.135 F18000
G1 X35.778 Y40.946 F24000
G1 Z0.135 F18000
G1 E0.0000 F7200
G92 E0.0000
G1 X35.181 Y41.246 E0.0171 F1890
G1 X34.741 Y41.558 E0.0309
G1 X34.342 Y41.920 E0.0447
G1 X33.881 Y42.487 E0.0634
G1 X33.515 Y43.156 E0.0829
G1 X33.276 Y43.879 E0.1024
G1 X33.170 Y44.634 E0.1219
G1 X33.201 Y45.364 E0.1406
G1 X33.305 Y45.893 E0.1544
G1 X33.472 Y46.405 E0.1682
G1 X33.800 Y47.059 E0.1869
G1 X34.216 Y47.610 E0.2046
G1 X21.138 Y47.772 E0.5394
G1 X21.562 Y47.099 E0.5597
G1 X21.777 Y46.605 E0.5735
G1 X21.931 Y46.088 E0.5873
G1 X22.032 Y45.364 E0.6060
G1 X22.000 Y44.602 E0.6255
G1 X21.843 Y43.918 E0.6435
G1 X21.716 Y43.565 E0.6531
G1 X21.416 Y42.967 E0.6702
G1 X21.105 Y42.527 E0.6840
G1 X20.742 Y42.128 E0.6978
G1 X20.175 Y41.668 E0.7165
G1 X19.507 Y41.301 E0.7360
G1 X18.783 Y41.062 E0.7555
G1 X18.028 Y40.956 E0.7750
G1 X17.298 Y40.988 E0.7937
G1 X16.769 Y41.091 E0.8075
G1 X16.257 Y41.258 E0.8213
G1 X15.604 Y41.586 E0.8400
G1 X14.996 Y42.045 E0.8595
G1 X14.480 Y42.607 E0.8790
G1 X14.074 Y43.252 E0.8985
G1 X13.791 Y43.959 E0.9180
G1 X13.647 Y44.676 E0.9368
G1 X13.621 Y45.214 E0.9505
G1 X13.660 Y45.752 E0.9643
G1 X13.822 Y46.464 E0.9830
G1 X14.123 Y47.165 E1.0025
G1 X14.580 Y47.854 E1.0237
G1 X6.310 Y47.956 E1.2354
G1 X5.121 Y-47.933 E3.6897
G1 X22.593 Y-48.149 E4.1369
G1 X22.317 Y-47.765 E4.1490
G1 X21.992 Y-47.076 E4.1685
G1 X21.805 Y-46.370 E4.1872
G1 X21.746 Y-45.834 E4.2010
G1 X21.753 Y-45.295 E4.2148
G1 X21.872 Y-44.574 E4.2335
G1 X22.129 Y-43.856 E4.2530
G1 X22.512 Y-43.197 E4.2725
G1 X22.987 Y-42.642 E4.2912
G1 X23.395 Y-42.289 E4.3050
G1 X23.842 Y-41.989 E4.3188
G1 X24.503 Y-41.677 E4.3375
G1 X25.240 Y-41.481 E4.3570
G1 X25.968 Y-41.424 E4.3757
G1 X26.506 Y-41.463 E4.3895
G1 X27.035 Y-41.567 E4.4033
G1 X27.693 Y-41.803 E4.4212
G1 X28.167 Y-42.060 E4.4350
G1 X28.607 Y-42.372 E4.4488
G1 X29.133 Y-42.879 E4.4675
G1 X29.577 Y-43.498 E4.4870
G1 X29.902 Y-44.188 E4.5065
G1 X30.098 Y-44.924 E4.5260
G1 X30.155 Y-45.653 E4.5447
G1 X30.116 Y-46.190 E4.5585
G1 X30.012 Y-46.719 E4.5723
G1 X29.776 Y-47.378 E4.5902
G1 X29.519 Y-47.852 E4.6040
G1 X29.250 Y-48.232 E4.6159
G1 X39.015 Y-48.353 E4.8659
G1 X40.131 Y41.672 E7.1701
G1 X39.725 Y41.341 E7.1835
G1 X39.056 Y40.975 E7.2030
G1 X38.333 Y40.736 E7.2225
G1 X37.578 Y40.630 E7.2420
G1 X36.816 Y40.663 E7.2616
G1 X36.132 Y40.819 E7.2795
G1 X35.778 Y40.946 E7.2891
G1 X35.959 Y41.366 F24000
G92 E0.0000
G1 X35.416 Y41.638 E0.0155 F1890
G1 X35.027 Y41.914 E0.0277
G1 X34.674 Y42.234 E0.0399
G1 X34.261 Y42.743 E0.0567
G1 X33.935 Y43.338 E0.0741
G1 X33.721 Y43.983 E0.0915
G1 X33.628 Y44.656 E0.1088
G1 X33.656 Y45.310 E0.1256
G1 X33.747 Y45.778 E0.1378
G1 X33.895 Y46.232 E0.1500
G1 X34.189 Y46.817 E0.1668
G1 X34.598 Y47.359 E0.1842
G1 X35.353 Y48.052 E0.2104
G1 X20.001 Y48.242 E0.6033
G1 X20.510 Y47.780 E0.6209
G1 X20.822 Y47.419 E0.6332
G1 X21.158 Y46.885 E0.6493
G1 X21.348 Y46.448 E0.6615
G1 X21.484 Y45.991 E0.6737
G1 X21.575 Y45.342 E0.6905
G1 X21.546 Y44.663 E0.7079
G1 X21.405 Y44.047 E0.7241
G1 X21.297 Y43.745 E0.7323
G1 X21.024 Y43.203 E0.7478
G1 X20.749 Y42.814 E0.7600
G1 X20.428 Y42.461 E0.7722
G1 X19.920 Y42.048 E0.7890
G1 X19.324 Y41.721 E0.8063
G1 X18.679 Y41.508 E0.8237
G1 X18.006 Y41.414 E0.8411
G1 X17.352 Y41.442 E0.8579
G1 X16.884 Y41.533 E0.8701
G1 X16.431 Y41.681 E0.8823
G1 X15.845 Y41.975 E0.8990
G1 X15.303 Y42.384 E0.9164
G1 X14.844 Y42.885 E0.9338
G1 X14.482 Y43.459 E0.9512
G1 X14.230 Y44.090 E0.9686
G1 X14.101 Y44.732 E0.9853
G1 X14.078 Y45.208 E0.9975
G1 X14.112 Y45.684 E1.0098
